Enrique-Val/SubgroupExplainer/datasets/puma32h_dis.csv
theta1,theta2,theta3,theta4,theta5,theta6,thetad1,thetad2,thetad3,thetad4,thetad5,thetad6,tau1,tau2,tau3,tau4,tau5,dm1,dm2,dm3,dm4,dm5,da1,da2,da3,da4,da5,db1,db2,db3,db4,db5,thetadd6
0.73646,-1.761829,1.590594,-0.268853,0.572145,-1.941886,0.727704,1.869884,0.22450100000000003,-1.442215,1.2228780000000001,2.1841470000000003,-17.700874,-48.591059,-69.92064599999999,-56.304775,35.642548,0.539676,2.083801,0.439963,2.451373,1.973873,2.381104,2.220872,2.440442,0.510303,1.157391,0.265448,1.141465,0.35631399999999996,0.5688529999999999,1.954376,"[0.0245966, 0.089805]"
-0.38971100000000003,0.342256,-1.522463,0.237098,-1.771509,-0.8854879999999999,-0.679111,-0.41021899999999994,-0.331288,2.092878,1.7353580000000002,1.185432,-13.44875,16.857753,-21.747815,34.47052,46.03646,1.8967490000000002,2.16689,1.9245419999999998,1.270063,1.697582,0.504973,1.580327,0.809171,2.235141,1.517466,1.795334,0.9293549999999999,1.663727,0.7544569999999999,0.650492,"[-0.005967399999999999, 0.006497999999999995]"
-0.269351,1.622452,-2.0478110000000003,1.7206029999999999,-1.7499639999999999,-1.618348,0.32718800000000003,-0.317671,0.046938,1.9118810000000002,-0.80316,2.281413,-31.820684000000004,-60.239107999999995,61.312743000000005,-16.728557000000002,-56.860861,1.2176,1.947443,1.424887,0.5711970000000001,0.853634,0.27124000000000004,1.723625,1.7189830000000001,2.438604,1.113059,2.18027,1.7947810000000002,0.627965,0.961728,1.258398,"[-0.005967399999999999, 0.006497999999999995]"
0.25684,0.16504000000000002,-1.776401,1.723357,2.117348,-1.692605,1.077334,1.761624,-0.333281,1.57386,1.228959,0.7088479999999999,21.786179,10.305694,-42.206506,-14.753722,-15.809157,0.557422,1.096861,2.1835880000000003,1.308812,0.45453999999999994,2.20635,1.3699219999999999,1.528851,1.9017060000000001,2.222391,0.968513,0.546513,2.23634,1.412382,1.8983740000000002,"[-0.005967399999999999, 0.006497999999999995]"
0.9682700000000001,1.834561,0.299747,0.30814400000000003,0.064617,2.174855,-1.213028,-1.563548,-2.27727,-0.059009000000000006,-2.169927,-0.781419,3.9571410000000005,57.666741,54.922653000000004,-14.973707999999998,36.882913,0.491771,2.437949,1.362933,1.056741,0.646724,1.235894,1.171433,2.2738709999999998,2.199479,0.6464,0.302676,1.323917,2.3248990000000003,0.33421999999999996,0.491228,"[0.006497999999999995, 0.0245966]"
1.9732189999999998,-1.9003279999999998,1.755539,1.069326,-0.896503,-2.0260540000000002,-0.15903699999999998,-1.017832,-0.739092,-0.066928,1.403939,1.0670979999999999,-20.289144,-49.643,-49.894246,-72.587127,-21.835739,2.2259599999999997,2.46699,1.196056,2.107127,0.989808,0.696371,0.906589,1.5407549999999999,1.7225840000000001,2.211768,2.4374569999999998,2.087463,1.235701,2.424325,1.88345,"[0.0245966, 0.089805]"
0.825565,2.000705,-1.7593889999999999,0.185671,0.969628,1.0978700000000001,-1.805552,1.879531,2.132396,1.460123,-1.826648,0.743513,-32.964663,62.907365000000006,-65.911658,-27.237363000000002,21.645967000000002,2.181548,0.776967,0.981137,1.213539,1.197058,0.948815,2.4778330000000004,1.189986,1.349215,2.2500259999999996,1.94425,1.7623529999999998,2.3638049999999997,1.7221009999999999,0.8498889999999999,"[0.006497999999999995, 0.0245966]"
0.734112,1.1800680000000001,-1.034351,-0.34126,-0.5745359999999999,-0.540296,0.018133,-1.545991,0.647626,-0.97031,1.576308,-0.03921,23.303159,6.200741000000001,-34.151271,69.594734,-21.298284,0.471062,0.892202,0.48789399999999994,0.289095,0.325768,2.435523,1.090482,0.724301,2.331182,2.42771,0.269038,0.718057,0.878972,0.8760690000000001,1.594595,"[-0.086661, -0.023139399999999997]"
0.805596,0.9643879999999999,-2.149934,0.664719,-1.144362,-2.030436,1.578742,-1.53829,-1.874612,0.435958,-0.624537,-2.103455,-13.362685999999998,-36.667202,-65.66674300000001,39.042332,-65.526356,1.353083,2.0182189999999998,0.708041,1.302717,1.5060950000000002,1.934665,0.416524,2.271327,2.189305,0.6424880000000001,2.047515,0.33719,0.898273,1.266921,0.634945,"[-0.023139399999999997, -0.005967399999999999]"
0.10463499999999999,0.871885,-1.75768,0.6380520000000001,-1.665193,-0.016683,2.346091,2.1861029999999997,-0.671349,-1.9007880000000001,-1.250359,-2.2394849999999997,-37.447745,15.757451000000001,-64.51881999999999,-17.800314999999998,-69.891474,1.1349479999999998,1.0674190000000001,2.355897,1.563933,2.023823,0.393097,2.281937,0.5139090000000001,1.016225,1.43536,1.093416,0.546241,2.1685849999999998,1.158092,0.802747,"[-0.023139399999999997, -0.005967399999999999]"
-0.738308,-1.022457,1.650859,-0.564279,2.200874,-2.167051,0.419951,-1.039498,-2.0180849999999997,1.8185630000000002,0.03751,-1.029719,67.55206899999999,-2.3815880000000003,22.647423,-64.76096700000001,-37.579637,2.110736,0.89874,2.3725490000000002,2.427109,1.414839,0.44859499999999997,1.277976,1.937175,2.100187,1.340036,0.978518,2.19921,0.624324,0.518687,0.318753,"[-0.086661, -0.023139399999999997]"
2.274685,-0.9816030000000001,0.27551,-1.786229,1.475403,0.510749,-1.821545,1.678368,-0.022703,0.13617,-1.6041159999999999,-0.807144,41.505545,-66.301838,15.011442,-2.689907,-59.262101,1.10304,0.297207,1.6577709999999999,1.9068040000000002,2.404041,0.720151,2.3325240000000003,2.489013,2.348398,1.5318040000000002,2.029784,1.574799,2.395579,0.253445,1.8946900000000002,"[-0.005967399999999999, 0.006497999999999995]"
-2.228374,1.786055,0.304217,0.031585,-1.643102,-1.011521,1.6686509999999999,1.586223,1.6612240000000003,-0.71159,0.344496,-1.588419,-27.791741,4.203880000000001,4.613673,-8.003721,31.470057,1.633638,1.295397,2.236482,1.5516159999999999,2.004339,1.4204370000000002,2.277906,0.267256,2.27258,0.745151,1.7575349999999998,2.388301,1.674575,0.839515,1.4857,"[-0.005967399999999999, 0.006497999999999995]"
-1.214474,-2.308954,-0.06619900000000001,-0.478112,-1.0059559999999999,0.950234,0.295624,1.696103,1.15525,1.2389139999999998,-1.620552,0.983607,13.225268,-22.917454,26.349220000000003,51.342213,-41.422143,0.8955620000000001,0.7045560000000001,1.216561,2.488302,1.6446040000000002,1.101292,2.4175,1.9235400000000002,2.435912,0.880446,0.909283,1.817779,2.4047490000000002,1.371171,2.2708459999999997,"[-0.086661, -0.023139399999999997]"
-1.3437370000000002,2.294629,-0.36901,-0.45383599999999996,1.74239,1.55663,-0.8979889999999999,1.2874,-1.951639,1.7377580000000001,-0.8961819999999999,-1.329748,56.624365000000004,-64.30123499999999,39.143507,-15.08015,47.921645,2.4112310000000003,2.302139,0.305917,1.7904400000000003,1.9290759999999998,0.978193,1.2379930000000001,0.450371,1.891675,2.382647,1.1487100000000001,0.611101,1.031307,0.6737380000000001,0.7564609999999999,"[-0.005967399999999999, 0.006497999999999995]"
0.853334,2.184567,1.796832,-2.348315,-1.880052,-1.465282,-0.046863,-0.664311,-1.417508,1.7770560000000002,-0.140663,1.502941,48.546645,73.46346,50.377487,-55.578609,-59.67422,0.705858,0.598444,2.0420830000000003,1.288022,2.031514,1.410007,2.49438,0.301667,2.372471,1.118049,0.542665,0.57449,2.195622,1.073935,1.634544,"[-0.023139399999999997, -0.005967399999999999]"
-0.922407,0.8575790000000001,-1.873574,-0.9811049999999999,-0.783243,-2.255939,0.324079,-0.727312,0.0038799999999999998,-0.7585609999999999,-2.125854,0.10558599999999999,-63.450075,-55.418833,-74.331096,67.261691,67.23346,2.016356,0.89969,0.342891,2.22126,2.21771,1.058107,1.113253,0.947311,1.961948,2.2025639999999997,0.73746,0.747175,2.022986,2.078472,0.8734290000000001,"[-0.086661, -0.023139399999999997]"
-1.932189,-1.223255,0.9034969999999999,1.764707,-0.338144,-0.047503,-1.982679,-1.591497,-0.772903,1.8721009999999998,-0.225976,0.213854,-41.645185,-30.618121999999996,51.229587,15.665187,34.791768,2.053589,1.1678110000000002,2.15699,2.031386,1.5035690000000002,2.229924,1.589216,1.7083709999999999,1.847288,1.1232600000000001,0.38616100000000003,0.45586000000000004,1.888753,0.527461,1.533234,"[-0.023139399999999997, -0.005967399999999999]"
-0.327488,-0.017718,-0.9067120000000001,0.757062,0.484575,1.236466,-0.352568,-2.138922,1.95114,-0.705228,-1.1004200000000002,1.371851,-32.252241999999995,36.570264,-63.57085,14.717209,2.1298470000000003,0.570186,1.8688,0.42418500000000003,0.519766,0.45078100000000004,2.033368,1.073135,1.671893,0.763045,0.99224,1.0808,2.248817,1.8683450000000001,1.7821930000000001,0.564604,"[-0.023139399999999997, -0.005967399999999999]"
1.8579,1.442575,0.12312100000000001,0.553377,-1.655568,1.519563,-1.8498009999999998,-1.9700419999999998,-1.251403,-0.9451620000000001,0.12378399999999999,2.275591,3.656886,-38.721371999999995,59.892456,-37.487809999999996,-57.630404000000006,0.71208,1.678498,1.524591,2.295986,0.38559499999999997,2.189108,1.8456689999999998,0.911949,1.623242,2.07345,1.981997,1.6725,1.9527900000000002,1.285496,2.32577,"[0.006497999999999995, 0.0245966]"
-1.325761,-1.8865580000000002,2.294248,-2.054092,-0.168004,-0.924841,-2.344445,1.913879,-0.20801999999999998,0.403319,2.160072,0.08189500000000001,12.601505,-6.505779,7.376562,-72.13139699999999,-12.381414,0.708725,1.545798,0.984516,1.767348,0.8251299999999999,0.455221,2.396621,2.014234,1.225722,1.203884,0.926158,1.9439799999999998,1.722949,1.605153,1.8067529999999998,"[0.0245966, 0.089805]"
-1.962938,0.339262,-0.021231,1.305596,2.263559,0.527997,0.613874,1.9577529999999999,2.061619,-0.5723630000000001,-1.7267669999999997,1.8245259999999999,41.247526,-52.831998999999996,52.596061,32.003338,-19.889854999999997,2.293056,0.638266,0.834324,1.989725,1.05461,0.824608,0.685211,2.334286,0.5971310000000001,2.480092,0.905122,1.642816,0.314299,0.9294389999999999,0.8230719999999999,"[0.006497999999999995, 0.0245966]"
0.89315,2.2118599999999997,-1.298749,-0.290286,-1.511595,-0.889229,-2.28475,1.457406,-0.375322,1.8458310000000002,1.231515,1.267685,40.36837,21.18789,4.8718129999999995,-19.441443,-52.327871,1.007067,0.532415,1.541664,1.2518479999999998,1.554804,1.595872,1.067014,2.3079560000000003,1.31461,1.146794,2.1610840000000002,1.089741,1.7689400000000002,0.571326,0.776044,"[-0.005967399999999999, 0.006497999999999995]"
-1.57082,-1.975718,2.315516,1.963024,1.117276,-0.8182,-0.735446,-0.050339,2.188729,1.059711,-2.273351,-0.156573,-63.837749,28.945621000000003,39.055475,5.369786,-50.005899,1.3878709999999999,1.705744,0.43525200000000003,2.037851,2.166787,2.4428400000000003,0.311369,1.185966,1.283533,0.837541,2.054808,1.4081350000000001,0.265888,1.776097,1.605734,"[-0.005967399999999999, 0.006497999999999995]"
1.355238,-2.200063,1.658482,0.32862399999999997,0.26059099999999996,1.9391509999999998,0.430382,-0.093475,-1.811712,2.019151,1.963775,-0.40124,-6.834808,27.375177,44.603234,-53.448848999999996,35.196449,0.575888,0.956932,1.650594,0.539227,1.289893,1.982131,1.6808610000000002,0.733861,0.996058,2.240537,2.211471,1.949931,0.488137,2.1208150000000003,1.537454,"[0.0245966, 0.089805]"
-1.331712,1.767296,0.7575310000000001,-1.04688,1.1445459999999998,0.412096,-1.1091030000000002,1.525543,-0.314211,1.6462029999999999,1.2984959999999999,0.755655,13.016521000000001,68.67343000000001,-55.665381999999994,-18.074303,-24.818360000000002,1.792425,1.537435,2.170093,1.758502,0.648282,0.41918999999999995,2.084151,1.819295,0.90012,0.8096180000000001,0.741858,0.40772800000000003,0.679355,0.66394,0.338861,"[0.006497999999999995, 0.0245966]"
1.9339490000000001,-2.1794569999999998,-0.730275,2.048552,1.296278,1.176073,-2.205159,0.8323149999999999,2.3404130000000003,1.011607,-0.214732,0.6883729999999999,18.073331,8.475727000000001,-48.460646000000004,21.917458,-33.279198,1.7728959999999998,1.8073439999999998,0.287579,1.8454709999999999,2.088857,2.16532,0.29243600000000003,2.468682,0.38795999999999997,1.444356,1.5473620000000001,0.259258,0.600467,2.3020400000000003,0.8886649999999999,"[-0.005967399999999999, 0.006497999999999995]"
2.0066990000000002,0.021016,-0.213804,2.1441169999999996,0.534742,0.8778290000000001,-0.8253510000000001,1.598391,-1.1710969999999998,1.02342,0.398963,-0.360865,-7.010078,-68.382948,-12.207516,28.276283000000003,39.489434,0.60878,0.261847,1.365659,1.8879130000000002,2.144863,0.719036,1.592076,0.26955300000000004,0.380861,1.386685,2.011468,2.000718,1.3153709999999998,0.448988,1.1495600000000001,"[-0.086661, -0.023139399999999997]"
1.9499279999999999,-2.224216,0.9819950000000001,1.5992870000000001,-0.241385,0.408522,0.07411799999999999,1.6234950000000001,1.3535469999999998,-2.3440090000000002,-0.181006,2.04311,-20.198023000000003,-18.17241,-23.703271,19.124520999999998,-24.168347,1.4139950000000001,2.0124299999999997,2.403387,0.9796040000000001,2.461248,1.451871,1.8440889999999999,1.348608,1.051301,1.461383,1.960275,1.098618,2.464999,1.488644,1.140096,"[-0.023139399999999997, -0.005967399999999999]"
-0.473972,-2.109563,0.596368,-0.10188,-1.701546,1.602349,-0.627633,-2.3073740000000003,-1.792778,-0.21039000000000002,-1.7342849999999999,-2.0065,-44.004546000000005,65.58953699999999,13.346035999999998,56.829108,-73.178546,0.447675,1.57209,1.865105,1.318663,1.7736319999999999,0.681632,0.697488,1.681605,1.979741,2.0099270000000002,0.849858,2.055468,1.24953,0.850217,1.3545200000000002,"[-0.005967399999999999, 0.006497999999999995]"
0.199545,-1.467072,-1.859633,-2.284086,-1.518348,-1.284922,1.191173,1.8159669999999999,-1.182159,-1.1143969999999999,2.0811610000000003,-1.9923819999999999,8.831151,-74.847348,-59.370978,-48.0207,66.094259,0.568067,2.248839,2.244569,2.468091,1.706949,0.441724,0.547639,0.9244709999999999,0.579064,0.322942,2.187153,0.48521400000000003,2.4897080000000003,0.518824,0.373621,"[0.006497999999999995, 0.0245966]"
2.295467,-0.413175,1.820744,-1.0052729999999999,-1.7151299999999998,-0.510185,1.863245,1.7373939999999999,-2.299162,-0.41933000000000004,2.057435,-0.196269,-0.862132,60.14157900000001,-50.477304,27.957617,-66.326319,2.17826,1.760117,0.78986,1.6804169999999998,2.273139,1.153377,0.29899499999999996,2.463711,2.347851,1.324994,2.4290700000000003,0.630158,1.812774,1.549204,1.9754599999999998,"[-0.005967399999999999, 0.006497999999999995]"
2.204809,-2.0005479999999998,-0.308344,1.2832379999999999,-1.222005,-1.64611,0.264885,-1.288912,0.107589,-1.313487,1.7638310000000001,-0.940575,58.01056,-16.526128,45.367512,41.772618,72.392899,2.236745,1.478108,1.817321,1.467801,1.83007,1.990762,0.49189700000000003,2.318502,0.816154,0.354589,0.8255120000000001,2.3790169999999997,0.8833290000000001,2.112131,1.8441900000000002,"[-0.023139399999999997, -0.005967399999999999]"
2.122157,-0.976226,1.111666,-0.8549200000000001,-0.557972,-0.17462,0.974785,-1.762951,1.578928,1.575122,-1.1347690000000001,-1.024463,29.145876,-45.257861,1.1260299999999999,25.194537,-5.416455,1.609608,2.428106,2.429433,2.2236380000000002,1.6813650000000002,2.4466759999999996,1.785786,2.454237,0.61611,1.968665,0.349717,2.1905040000000002,0.542247,0.289562,1.416305,"[-0.023139399999999997, -0.005967399999999999]"
-0.418317,0.22461399999999998,0.467404,0.10884300000000001,0.922982,-0.619562,1.4046610000000002,-0.930169,-2.352551,2.332289,1.121767,-0.736129,-66.750586,-27.104868,-1.521492,-71.71554300000001,-73.127654,2.027816,2.2491220000000003,2.499933,1.380469,1.045557,1.681081,2.1832290000000003,2.027757,1.264233,0.455829,1.3677110000000001,0.366331,2.420007,1.311823,1.565641,"[0.0245966, 0.089805]"
-0.34419099999999997,2.0031380000000003,1.439684,-1.3540809999999999,-1.916614,1.362675,0.275037,-0.313341,2.123349,0.211425,0.27573200000000003,1.941987,30.752715000000002,-39.12086,-54.301207999999995,-40.401546,21.211475,0.643885,0.781213,0.348532,0.277379,1.410993,1.065166,0.49069399999999996,2.343464,1.8450080000000002,1.046781,1.9928810000000001,2.343861,1.776974,0.60339,1.9324430000000001,"[-0.023139399999999997, -0.005967399999999999]"
-0.26681,1.9141240000000002,-0.8030619999999999,-0.788301,2.266405,1.22266,-1.4814459999999998,1.608011,0.29728899999999997,1.40076,-0.523507,-0.5462229999999999,-20.349103,-7.378044999999999,47.197758,52.719058,-0.7974,0.59636,0.767934,2.165795,1.518512,1.377406,1.306561,0.8653280000000001,1.072875,1.806382,2.109623,2.432645,2.215801,0.464433,1.9742680000000001,2.26873,"[0.0245966, 0.089805]"
-1.22805,0.42098,2.11262,-1.05162,1.593197,1.07138,0.642825,-1.5530700000000002,-0.5248470000000001,0.494845,-0.5067550000000001,-1.7526389999999998,17.309137,64.671224,29.259448,63.537251,20.582074,1.718794,1.517181,1.5088190000000001,0.46369499999999997,0.8270350000000001,0.9729110000000001,2.468106,1.959643,1.718058,0.40448,2.340605,1.051242,0.467671,2.390199,2.07976,"[-0.005967399999999999, 0.006497999999999995]"
-0.597136,1.32605,2.025998,-0.776004,1.594898,1.390657,-0.67195,2.140861,-2.35005,1.946716,0.347711,0.616621,32.238508,32.610149,-21.222851000000002,7.537688,-64.078106,1.963998,0.659939,0.590376,1.4561520000000001,1.801009,1.812109,1.613933,0.8782459999999999,2.181678,0.7122850000000001,0.620031,0.359629,2.280144,1.880681,2.106635,"[-0.005967399999999999, 0.006497999999999995]"
1.10869,0.964889,1.56334,-1.234713,1.539284,-0.265464,0.975511,1.005796,1.0698860000000001,-0.8940819999999999,0.976223,-1.159869,39.229566999999996,-68.66262900000001,-62.800026,69.95473100000001,29.168003999999996,1.774662,2.251519,2.275907,0.41601099999999996,0.404077,2.330172,1.196768,0.579148,1.7389439999999998,0.42454899999999995,2.139343,2.432126,2.496787,0.252325,1.081444,"[-0.023139399999999997, -0.005967399999999999]"
-2.0579959999999997,0.18742999999999999,2.266987,1.583896,0.253862,1.946345,-1.188741,1.360903,-1.232912,-1.1799879999999998,-2.3223700000000003,0.652355,-50.646967,26.430543,68.139732,-25.523931,19.28585,1.18413,1.921261,2.3870270000000002,0.506522,0.622749,1.0417020000000001,2.134766,2.015731,1.648278,2.103183,2.194445,1.544008,2.394907,2.4507369999999997,0.290081,"[0.0245966, 0.089805]"
-0.202373,1.0671979999999999,1.0405309999999999,0.528994,-1.474458,1.2369450000000002,-1.731041,0.684926,-0.814357,-2.122329,-1.910073,-1.8058009999999998,-73.664315,23.862138,-49.041644,7.08332,-50.633258000000005,0.727448,1.2153129999999999,1.768231,2.15083,2.005936,1.2708979999999999,2.228027,1.205075,0.697703,0.8010970000000001,1.536775,2.325704,0.360969,2.300823,0.680268,"[-0.005967399999999999, 0.006497999999999995]"
1.622066,0.895739,-1.3974030000000002,0.390919,1.104077,-1.169936,1.691456,-1.54861,-0.972828,1.672808,0.766968,2.044124,72.251544,-68.307314,58.980728000000006,-60.906797999999995,-60.55969,2.474255,1.800512,2.447765,2.082655,1.44071,1.012999,1.220932,1.702934,0.455301,1.501219,0.989028,1.089394,0.44203000000000003,1.195569,0.6736489999999999,"[0.006497999999999995, 0.0245966]"
-1.365718,0.42123299999999997,1.6468450000000001,-2.054991,-1.14367,0.17975,0.41090299999999996,-2.323307,-0.97116,1.432418,-0.952766,-0.43877700000000003,11.790711,16.483033,-19.668638,29.201437,-11.442091,1.2666819999999999,1.122711,2.408713,0.48999899999999996,1.9128779999999999,0.984258,1.921788,2.244414,2.122493,0.495471,1.636729,1.51335,2.368909,2.007576,1.831825,"[-0.005967399999999999, 0.006497999999999995]"
2.127532,-0.18115499999999998,-0.46918000000000004,-1.683473,-0.942911,0.252781,-2.092058,-2.082573,1.814831,-1.424773,2.192165,2.256716,-44.285920000000004,-13.452607999999998,-47.989195,-4.399033,15.452409,2.2545759999999997,1.904264,2.464938,0.46089300000000005,0.979295,1.754134,1.481054,1.832875,1.88566,0.291617,2.205423,1.539292,1.8759759999999999,1.776952,2.481534,"[0.006497999999999995, 0.0245966]"
0.38216100000000003,-0.005071,-0.402129,-1.024313,-1.264981,1.75689,0.21705100000000002,0.582309,-0.7707729999999999,-0.021046000000000002,-0.28360799999999997,2.3319520000000002,5.631577,-0.091539,-38.487907,-66.260269,-36.333661,1.227371,1.925602,1.0903530000000001,0.821983,1.5713709999999999,1.041461,0.334233,0.6992470000000001,1.9915779999999998,0.706731,1.777106,0.576604,1.727307,0.605954,2.2748880000000002,"[0.0245966, 0.089805]"
-0.994741,0.938109,-0.8494450000000001,1.924179,-1.451136,2.077644,0.168883,1.556334,-1.166475,-1.4123370000000002,-0.8469540000000001,1.3783590000000001,-0.583482,-56.575883,-20.858677,-21.792317999999998,36.518889,0.9695280000000001,1.855164,0.7478130000000001,1.48564,2.40462,1.443496,0.5786020000000001,1.568215,1.995923,1.7241380000000002,1.341092,0.732703,1.789684,0.470369,0.49148100000000006,"[-0.023139399999999997, -0.005967399999999999]"
1.428557,0.144122,0.093816,-1.8773119999999999,2.1670979999999997,0.37033299999999997,-0.8844559999999999,-2.171964,-2.030494,0.605087,0.357942,-1.782748,-40.645454,-28.139783,4.6671,-10.042896,-40.946001,1.6834919999999998,2.202616,1.618702,2.270582,0.92666,1.374676,0.431595,1.314611,1.161251,2.144263,1.881672,0.760396,1.4756049999999998,2.498401,0.374604,"[-0.005967399999999999, 0.006497999999999995]"
1.149375,1.469366,-1.9994560000000001,-0.80829,0.8897510000000001,1.629881,0.289206,2.211103,0.109198,2.167928,0.169202,2.215611,14.965727,-21.020229999999998,-36.999691999999996,46.178818,27.395943,0.529303,0.988201,0.693096,2.115385,0.28121799999999997,0.674309,1.3591280000000001,2.3706240000000003,1.580406,2.1262779999999997,1.111046,2.092743,2.234686,0.610506,2.274153,"[-0.086661, -0.023139399999999997]"
0.302244,-0.145252,-0.228739,0.897209,-0.259548,1.448377,-1.322003,0.003692,0.79,-1.980504,1.9784560000000002,1.2979450000000001,28.961956,13.599029999999999,-41.098603000000004,5.772977,-23.56912,1.732014,0.9600270000000001,1.9209349999999998,1.402724,1.5789790000000001,0.648938,2.45237,0.724643,1.3275290000000002,2.2863599999999997,0.6091479999999999,1.9457689999999999,0.28493,2.3104880000000003,1.116114,"[-0.023139399999999997, -0.005967399999999999]"
2.1492080000000002,1.277042,-1.684981,1.974405,-0.820628,0.8672690000000001,0.771238,-1.582216,-0.298746,-2.338057,0.891508,-1.826124,3.9039870000000003,64.307822,71.558138,-22.367901999999997,-37.320793,2.1165849999999997,2.439006,1.124126,1.4393040000000001,2.137334,2.429882,0.771085,1.127161,0.689695,1.20032,1.783267,0.620737,0.973563,2.176657,1.8215569999999999,"[0.006497999999999995, 0.0245966]"
0.506754,1.7250889999999999,-1.7630080000000001,0.620541,0.91085,-1.8882919999999999,1.415008,-1.3907459999999998,-0.825304,-2.327402,0.8926729999999999,-1.0956860000000002,26.201432,-32.540774,-12.781177,-13.246754999999999,-38.205311,1.875068,2.260032,1.356474,0.51471,0.9806889999999999,0.43435200000000007,0.41180600000000006,1.721914,2.208719,0.690113,1.48111,0.511979,2.328411,0.8496389999999999,0.626509,"[0.006497999999999995, 0.0245966]"
-0.252992,-1.466912,0.8337049999999999,2.153064,0.10963800000000001,0.137438,0.841578,-2.182687,1.52385,-0.4898,0.46917200000000003,1.5551270000000001,67.28839,65.97555899999999,51.223406,61.79244,-54.463136999999996,0.445934,1.567585,0.40664,0.393914,0.25552199999999997,0.814645,1.982325,0.44358800000000004,0.390822,2.293222,1.1853850000000001,0.512309,1.12616,1.871146,1.6037649999999999,"[-0.086661, -0.023139399999999997]"
-0.632668,-2.09977,0.23881100000000002,-1.263365,0.650794,0.44588500000000003,1.286266,-2.173269,-0.398483,-1.0060639999999998,-0.86095,1.760056,50.723471,59.373445,-60.50345600000001,-31.585994,-15.799481,0.746772,2.005051,2.145028,1.2372049999999999,0.711782,1.171902,1.15056,2.4598310000000003,2.3830150000000003,0.575623,0.988282,2.059316,0.673795,1.718793,1.507901,"[0.006497999999999995, 0.0245966]"
-0.484229,-0.144539,2.3180959999999997,-1.793062,-0.265226,0.270858,0.1426,-1.929328,-0.26316,2.000639,1.846167,2.162235,-39.834439,-47.420069,-39.106788,32.206193,-60.520312,1.151867,1.9328599999999998,1.575876,2.498623,1.857941,2.4090700000000003,1.9933189999999998,0.7161489999999999,0.30841799999999997,1.082594,0.9130370000000001,1.917576,1.1916799999999999,0.562761,0.822124,"[-0.086661, -0.023139399999999997]"
0.918536,0.050479,0.174968,0.15062899999999999,1.07216,-0.376139,2.2517240000000003,-0.465203,-0.805426,1.90336,2.0735580000000002,2.17703,-74.827635,-28.057288,41.164765,56.198741000000005,-17.760831,1.2807600000000001,1.483091,2.314164,2.157837,0.512948,0.613097,0.826166,2.128245,0.412897,2.054478,0.356159,2.463975,2.271966,1.6833740000000001,2.461318,"[-0.023139399999999997, -0.005967399999999999]"
1.4299790000000001,0.468016,0.967566,-0.578064,1.416132,-1.346035,1.373283,-0.5150779999999999,-0.25792800000000005,0.410217,0.28570300000000004,-0.117003,-44.464894,-21.467935999999998,-61.597066000000005,38.109102,-0.324031,0.6851649999999999,1.561149,2.472307,0.563832,0.828528,1.315309,1.6573790000000002,2.06822,1.823435,0.724392,1.606203,1.45361,1.816403,1.79215,1.42136,"[-0.023139399999999997, -0.005967399999999999]"
0.555334,-1.740475,2.3497939999999997,-1.548286,-0.23027399999999998,-1.344861,2.25792,-0.005472,2.287681,0.6644,-1.784792,2.062295,43.465021,16.607642000000002,-25.366269,-30.88083,-14.105851999999999,2.4693009999999997,1.8006220000000002,2.045547,1.009823,1.8404639999999999,1.183196,1.967383,1.309948,1.5480559999999999,0.6742779999999999,0.832557,1.528047,1.8820189999999999,2.092765,0.34897,"[0.0245966, 0.089805]"
-1.764741,-0.22451100000000002,1.2703870000000002,-0.443237,0.807296,1.258402,0.760491,1.5800100000000001,0.916551,-0.322011,-2.21812,-0.23196599999999998,-48.091027000000004,-65.889811,39.943012,72.20693399999999,-68.055097,0.594856,2.498491,1.894448,1.7341389999999999,0.6680689999999999,2.242587,0.664497,0.700721,2.019456,1.254027,2.185699,0.794466,0.347058,0.25399099999999997,2.083503,"[-0.086661, -0.023139399999999997]"
1.615365,1.358633,-1.692767,-1.644881,2.064721,-0.25994,-0.428375,0.839901,-2.102102,-1.248435,1.814684,0.808703,42.644935,33.414602,-0.780985,73.983078,-66.401673,1.181137,1.127357,1.740176,0.8955719999999999,0.870506,0.343821,2.093554,2.362001,0.647794,1.2280870000000002,0.457582,1.583369,2.431436,2.137448,2.09583,"[0.0245966, 0.089805]"
0.058462,-2.32323,0.33376,1.7623790000000001,-1.7656060000000002,-0.632137,2.115857,1.525954,1.891961,-1.008034,-0.993604,1.205914,-6.243385,67.425679,-26.618646000000002,70.420711,60.886196,1.58933,1.361306,0.721249,0.52372,1.6638369999999998,0.363033,1.001154,2.393626,1.165952,2.4043200000000002,0.8971540000000001,0.47279899999999997,0.829333,1.35331,1.335429,"[0.006497999999999995, 0.0245966]"
1.068128,-2.167173,-1.621591,-2.33193,0.18443800000000002,-0.9054459999999999,-1.51959,1.393584,1.39306,2.0155849999999997,-1.421079,-1.6822970000000002,-1.2045540000000001,5.057728,-44.760777000000004,-44.373486,14.819392,2.417884,1.631744,0.978506,1.9971430000000001,1.983057,1.483774,0.295659,0.394563,2.171952,1.490183,2.248165,2.166486,1.885088,1.923471,1.274524,"[0.0245966, 0.089805]"
0.385332,1.454533,-1.540512,-1.520985,1.521407,0.871935,-0.914214,1.906697,1.603879,1.531417,-0.543925,0.285084,-34.813774,34.907272,36.520063,-7.305502000000001,66.429084,1.729327,0.806515,0.352373,1.828713,1.6826459999999999,1.48685,2.485314,0.924782,1.30826,2.427628,1.138783,0.279509,1.202152,1.068128,0.780989,"[-0.005967399999999999, 0.006497999999999995]"
-0.998677,0.768618,1.5066950000000001,-1.360031,1.7552009999999998,0.103532,1.18702,-2.0044009999999997,0.9044969999999999,-0.282097,-0.533288,-0.015621000000000001,42.917402,-37.229608,-68.028001,-46.62055,48.409217,1.580646,1.6726560000000001,2.330965,1.023016,0.837917,1.628442,1.72423,0.626872,0.5901770000000001,0.355466,2.073732,2.2056299999999998,0.514916,2.189619,1.427893,"[-0.023139399999999997, -0.005967399999999999]"
-1.186544,0.5815600000000001,0.78857,2.2610200000000003,0.265498,-0.41226599999999997,-1.735742,1.778661,-1.439424,1.0088700000000002,0.899244,0.9606129999999999,11.956031,-54.993483,24.53129,-52.60889,52.380971,1.629704,0.44095500000000004,1.132692,1.403966,2.204964,0.578307,1.099443,0.594022,1.978506,1.4946,2.233275,1.662045,1.734366,2.245211,2.010216,"[0.0245966, 0.089805]"
1.8767580000000001,-2.061053,0.645338,-1.7185,-0.596486,-1.8838240000000002,1.107543,0.536358,-0.228857,-1.0894549999999998,1.8797169999999999,0.544114,-58.079122,64.200867,73.972994,64.107343,2.1206869999999998,0.510863,1.5794219999999999,1.339567,2.104664,2.338422,0.355738,2.14175,2.3993189999999998,2.3622229999999997,2.1267810000000003,0.564546,1.569619,0.839151,2.106825,0.41668299999999997,"[-0.086661, -0.023139399999999997]"
0.312604,-0.371304,-1.298985,0.451543,2.1323369999999997,0.461426,-1.410851,0.571418,-0.031511000000000004,-1.812571,1.718996,-0.484174,24.995756,-46.336182,27.791743,-4.171009,-52.154962,1.848191,0.5479069999999999,0.9306979999999999,1.749032,1.2273290000000001,1.216862,0.791335,1.715216,2.132725,1.455975,1.0782370000000001,1.9328919999999998,2.110548,2.232811,0.6078359999999999,"[-0.023139399999999997, -0.005967399999999999]"
1.2834079999999999,1.630327,-1.641411,-0.8660260000000001,1.267808,-1.37505,-0.915236,-1.141011,-2.267876,2.315989,0.48869799999999997,-0.143157,63.192523,-73.271654,23.318099,-42.717203000000005,-48.024066,1.517785,0.41262299999999996,1.9525430000000001,1.643464,2.201004,1.524457,2.2998979999999998,0.88866,1.706593,1.208971,0.925676,0.581097,0.750804,2.266619,1.816813,"[0.006497999999999995, 0.0245966]"
-0.8994629999999999,0.06169500000000001,0.181136,0.14945999999999998,0.26464099999999996,-0.671261,-0.431821,-0.543021,1.3418510000000001,-1.012679,1.0561209999999999,-1.34649,-49.740741,-42.640544,40.37319,-47.798621999999995,48.555109,2.360657,0.560728,0.40921199999999996,0.880016,0.42098500000000005,0.746152,0.577563,2.095498,1.280462,0.967901,1.511642,0.667038,0.662523,1.271185,0.301593,"[0.0245966, 0.089805]"
0.205367,2.135366,-0.45170299999999997,-0.115757,0.69488,1.547388,-0.719353,1.8164759999999998,-2.059715,-0.428849,2.291472,-1.590068,-10.248137,-40.444860999999996,43.213563,-9.64115,-38.808924,0.451112,0.8391299999999999,1.7564529999999998,2.2000990000000002,2.057407,2.3336240000000004,0.725852,1.4016030000000002,0.7366779999999999,1.096703,1.7871689999999998,0.956707,2.376387,1.677428,1.5403040000000001,"[-0.005967399999999999, 0.006497999999999995]"
-0.393181,-1.423194,0.460938,-0.179348,1.620749,2.323024,0.920344,2.1637169999999997,0.090555,-0.141733,2.3558,0.43466899999999997,40.78433,-37.758676,39.92556,-71.109341,65.297763,2.267582,2.247816,0.7861670000000001,0.36258,2.381456,1.3738540000000001,2.3635,1.09643,1.6941810000000002,1.841704,1.770299,0.9170200000000001,1.359781,2.093579,0.537618,"[-0.005967399999999999, 0.006497999999999995]"
1.046923,-0.425479,-2.3335470000000003,1.283305,-0.104182,2.023997,-1.4235149999999999,-0.219914,-1.57851,0.731588,1.1760680000000001,-2.303852,27.225234999999998,74.521333,-19.962492,40.395769,31.694196999999996,1.890466,2.307676,1.104431,1.167835,0.309803,1.8669189999999998,0.31499499999999997,1.378902,1.702967,1.013993,2.1748790000000002,1.191657,2.4230490000000002,0.680848,1.011304,"[-0.086661, -0.023139399999999997]"
-2.189946,2.049601,0.085601,1.4201,-0.626391,-0.279835,-0.225161,-0.24090599999999998,-0.966742,0.276876,2.3341529999999997,-0.522722,-47.771732,50.507976,37.554369,-23.721594,11.174892,1.621077,1.690953,1.595491,1.421974,1.123966,0.999567,0.47357200000000005,0.32627,1.8636840000000001,2.180884,0.867634,1.583037,1.353117,0.32934,1.7241849999999999,"[0.006497999999999995, 0.0245966]"
-0.624838,2.267497,0.7363970000000001,1.8974259999999998,1.300592,-1.7295770000000001,1.7289560000000002,1.976634,-1.060957,0.178061,0.30937,1.8146650000000002,15.578880999999999,-65.749859,-7.8765339999999995,69.09020600000001,49.086937,1.4372040000000001,0.584342,1.280686,2.484959,1.713671,0.921165,1.271871,0.592801,1.707789,1.0587010000000001,2.095296,2.392092,2.386173,1.9155360000000001,0.6676350000000001,"[-0.086661, -0.023139399999999997]"
-0.301183,-0.8759680000000001,-0.8956290000000001,-1.464745,-0.44861899999999993,-0.124824,-0.904372,-2.3193040000000003,0.344405,1.605731,-0.329231,-1.039872,35.914059,7.581983,-69.609601,71.44183699999999,-27.04706,2.425836,0.27416799999999997,1.4496639999999998,0.7580979999999999,1.10917,2.0773770000000003,0.468826,1.559294,0.552559,0.35535,2.375048,1.677529,0.9735450000000001,1.872596,1.229834,"[-0.086661, -0.023139399999999997]"
1.9608240000000001,1.8282049999999999,1.860469,2.195295,-1.676854,1.918682,0.406568,0.228913,2.037847,0.44925,1.297772,-2.001179,-47.774359000000004,6.34847,48.73855,-1.191547,73.670527,0.333171,0.861259,2.427353,1.0277969999999998,2.443362,2.331626,0.891742,1.752203,0.53065,1.135737,0.838691,1.127474,1.453846,1.285652,0.457167,"[0.006497999999999995, 0.0245966]"
-1.7012740000000002,1.467211,-0.517605,-0.323778,1.078117,0.77482,2.062279,1.104967,-0.340319,1.106919,-0.520267,2.06495,-36.200399,-20.100573999999998,-30.350855,43.183223999999996,-69.561587,1.051176,1.613566,1.4467370000000002,1.0589309999999998,1.45505,1.277684,1.529736,1.027047,1.0844120000000002,2.208447,0.61343,1.9250880000000001,1.4595799999999999,0.915552,1.439655,"[-0.086661, -0.023139399999999997]"
-1.9233740000000001,0.849406,2.137115,0.658928,0.48420799999999997,-0.21331599999999998,0.9279940000000001,-1.215522,-1.0647520000000001,-2.3466869999999997,1.9262099999999998,-0.30392600000000003,4.724482,54.363804,42.459277,63.075223,55.275713,2.4086060000000002,0.9419280000000001,1.480856,0.750609,1.232567,1.502263,0.5394909999999999,1.218358,1.192636,0.890767,1.115858,1.976908,1.63757,2.140066,1.082459,"[-0.086661, -0.023139399999999997]"
-1.672767,-0.077,1.7679189999999998,1.8033869999999999,-0.555826,-1.808272,-1.4396200000000001,-2.288282,-1.354503,0.41489799999999993,-1.140808,1.1420569999999999,31.84263,-20.912326999999998,-23.472233,2.1780209999999998,5.995775,0.9398049999999999,1.8007240000000002,1.525593,1.148274,2.291554,2.4001330000000003,0.27989899999999995,1.004443,1.4251260000000001,2.345968,1.180604,1.16412,0.858505,1.1497680000000001,0.39710700000000004,"[-0.005967399999999999, 0.006497999999999995]"
0.022658,-0.8868440000000001,0.095493,-1.976596,1.689444,2.345177,0.964368,2.223372,-1.0243149999999999,-1.310861,-1.226092,0.34418699999999997,-65.57915799999999,11.099039,-58.454069999999994,62.44708000000001,-1.927832,1.358834,1.918211,0.625366,2.284671,1.457991,1.210034,0.786485,1.2095120000000001,1.024857,0.274148,1.111055,2.24281,2.1560040000000003,1.214756,1.411108,"[-0.005967399999999999, 0.006497999999999995]"
-1.123605,-1.8816400000000002,0.122404,-2.064343,1.903531,0.236736,1.563495,1.3784459999999998,1.43769,-1.870038,1.9012470000000001,-0.455801,54.183758,16.426083,73.17148900000001,-56.788909999999994,-1.203084,1.821507,2.070159,0.666246,0.850239,1.7087139999999998,0.850891,1.417441,1.422405,1.602244,2.41994,2.437045,1.915112,0.27881300000000003,0.756193,0.584278,"[-0.005967399999999999, 0.006497999999999995]"
0.391225,1.5428790000000001,-1.102041,-2.3095689999999998,-0.970985,-0.34694400000000003,-1.8684880000000001,-0.32352,0.695766,2.30896,0.17005499999999998,-2.300259,-0.291333,53.568839000000004,31.471076,34.371683000000004,34.873149,2.3203080000000003,1.920784,1.119551,1.045784,0.9908950000000001,0.976195,1.403759,0.979252,1.0348629999999999,1.9479419999999998,0.8091470000000001,1.833261,1.617813,0.839842,2.474406,"[-0.023139399999999997, -0.005967399999999999]"
2.295651,-2.040699,-1.257617,-1.704735,-0.152339,-1.533687,0.082816,1.736822,2.226512,-0.096202,-0.522183,-1.8561159999999999,8.591655000000001,-50.046887,61.96464,-10.292133,-29.88062,1.321194,1.551064,1.731917,1.572676,0.466046,2.09107,1.1142040000000002,1.181583,1.860477,2.294007,0.8795459999999999,1.524944,1.475734,2.417888,1.6954369999999999,"[0.006497999999999995, 0.0245966]"
-0.891706,-1.50695,1.780848,2.336841,2.242736,-0.740762,0.147498,0.283973,-0.9086139999999999,1.781841,0.167962,0.209389,-30.606834000000003,-59.067440000000005,-46.464901,-35.583813,-7.145557000000001,2.19425,0.518532,2.212889,1.0225030000000002,1.2041680000000001,1.204767,2.273589,1.9593639999999999,1.535403,1.761038,0.5143409999999999,1.5362719999999999,0.622908,1.472494,1.950837,"[-0.023139399999999997, -0.005967399999999999]"
1.6632959999999999,1.116368,-1.940541,-0.22359600000000002,-2.207027,-2.291497,1.166934,-0.30499699999999996,0.9885219999999999,-1.795675,-1.7635669999999999,0.659647,-49.83974,-56.509822,39.420196999999995,-14.745844,-33.394033,2.072293,0.526962,2.145293,1.19131,1.0900809999999999,0.744843,1.07039,0.536151,1.340342,1.62238,1.081623,0.33332399999999995,1.171268,1.753624,1.9064900000000002,"[-0.023139399999999997, -0.005967399999999999]"
-1.214534,1.398799,-0.487246,0.9875510000000001,0.7395430000000001,-1.7808169999999999,-1.8166360000000001,-0.638159,-0.140127,1.0782450000000001,-1.783061,-1.827761,27.928998999999997,52.67833100000001,64.705605,7.101421,-46.412110999999996,0.649812,1.382723,0.671326,0.727565,0.9292290000000001,1.801752,0.7890590000000001,1.720778,1.117193,1.915668,0.631128,2.374579,0.554168,0.39963699999999996,1.9571459999999998,"[-0.023139399999999997, -0.005967399999999999]"
0.677232,1.8117,-2.214436,0.427346,0.730254,2.323758,-0.8719020000000001,1.478528,1.202049,0.8325899999999999,2.265207,-0.06161900000000001,35.101997,9.264678,11.447648,-49.374207,-32.294379,0.30046100000000003,2.347968,1.045197,2.370319,0.958362,0.938335,1.8407830000000003,2.042067,1.0216809999999998,0.8861620000000001,2.466387,2.3070779999999997,2.3166189999999998,0.667661,2.130953,"[0.0245966, 0.089805]"
1.9383130000000002,0.48867200000000005,-0.582188,-1.906381,-1.00955,1.8108939999999998,-1.630371,0.8938719999999999,0.208988,1.727973,-0.41341400000000006,-2.190865,23.757368,-9.910160000000001,-60.06214,35.616766999999996,-38.989334,2.218993,2.360573,1.392878,0.346014,0.714129,2.372473,1.151929,0.71975,2.339929,0.9420430000000001,1.173306,2.258861,1.9342979999999999,1.004456,1.6384459999999998,"[-0.023139399999999997, -0.005967399999999999]"
-2.337726,1.744003,0.406499,-0.933609,1.083022,-1.6023399999999999,0.7756,1.033173,-0.6173609999999999,0.70203,-0.800243,-0.518137,5.454584,25.197074,37.230996000000005,-58.64433100000001,14.728779000000001,2.073916,0.802089,2.467337,0.279516,1.330013,1.283858,1.794039,1.661475,1.155137,0.6359640000000001,0.397417,0.636687,1.300708,1.4983030000000002,1.4815559999999999,"[0.0245966, 0.089805]"
1.9921810000000002,1.069642,-0.287975,-0.37055,1.9457470000000001,-1.8166630000000001,-1.080066,-0.5443439999999999,-2.04593,0.356926,-0.023099,-1.803795,-50.610392,41.149977,-42.328789,30.046015,-66.629769,2.1770400000000003,1.5110780000000001,2.430751,1.880279,2.099389,1.437239,1.181527,0.9229569999999999,2.132366,2.168,0.32564,0.288365,1.546958,2.470861,1.011476,"[0.006497999999999995, 0.0245966]"
-1.5751549999999999,0.5740689999999999,2.113057,1.592697,2.091186,1.565374,-0.02108,-0.863265,0.543995,0.8892040000000001,1.8626490000000002,1.134477,26.510004,53.631381999999995,32.644819,-38.53479,45.786744,1.942141,2.320352,0.406185,1.752045,2.372081,1.321216,1.933275,1.794223,0.253092,0.468552,1.445068,2.259768,1.414221,1.317507,0.33310700000000004,"[-0.086661, -0.023139399999999997]"
-1.951493,-0.509549,-1.583146,-1.781524,0.441378,0.945807,1.29125,1.4823709999999999,-0.19656099999999999,-0.221404,1.6518509999999997,1.980189,68.329913,20.853711999999998,-61.659475,39.199919,33.041441,1.7874599999999998,1.34555,1.415741,2.114807,1.8076619999999999,1.126711,2.1285830000000003,1.589546,0.503356,1.4030719999999999,0.682937,2.369291,1.6767580000000002,1.527007,2.39981,"[-0.086661, -0.023139399999999997]"
-0.6635409999999999,2.095975,1.9397939999999998,1.811632,1.361948,2.185301,-0.000799,0.715121,-2.2688740000000003,-0.31621900000000003,0.880341,-1.009996,-31.080118,-63.54849399999999,-59.546629,-0.199187,-47.740995,0.881553,1.5086979999999999,0.693412,0.675479,0.77625,2.440352,1.240512,2.281618,1.901339,0.560322,0.33563200000000004,1.712898,1.43092,0.7263069999999999,2.2898959999999997,"[0.006497999999999995, 0.0245966]"
-1.8369090000000001,-2.0699799999999997,1.4059110000000001,1.225974,-2.329338,1.339307,-1.348055,0.413243,-0.686288,1.487649,-1.019419,0.878025,-71.27551700000001,-27.617240000000002,-62.9562,-4.848687,-41.873668,1.81404,0.316715,1.029987,0.993764,1.9414049999999998,1.199656,1.872121,2.238755,1.501607,0.766771,0.628119,1.300916,0.49042700000000006,2.359741,0.91195,"[-0.023139399999999997, -0.005967399999999999]"
-0.138225,0.053871,0.639592,0.667972,1.6991610000000001,0.714012,-2.055862,-1.638003,-0.130917,0.362661,2.1238349999999997,-1.049988,23.803622,17.48075,-51.027215999999996,-64.411197,-8.980417,0.866922,0.864926,1.0571059999999999,2.276021,2.3371720000000002,1.8466619999999998,1.846526,1.805939,1.418025,2.252549,1.595864,0.92827,1.4389319999999999,0.382359,1.8119180000000001,"[-0.005967399999999999, 0.006497999999999995]"
2.098992,0.810027,0.029689999999999998,-0.5204770000000001,-1.470674,-1.1448,0.029116000000000003,-0.734595,0.11265599999999999,-0.966513,-0.580094,0.28784099999999996,-59.603823,-61.445599,33.812579,-61.976454000000004,-38.264812,0.374665,0.739925,1.671295,1.948009,1.93787,0.27883600000000003,1.145183,2.091193,0.9317690000000001,1.735801,1.607791,1.1418709999999999,0.42875,0.748568,0.6871619999999999,"[0.006497999999999995, 0.0245966]"
-0.008226,-1.600063,1.342151,-0.675188,-0.451355,1.024484,-0.569923,1.587816,0.17333800000000002,1.029059,0.9245389999999999,1.975163,-70.772215,31.382882000000002,52.100390000000004,-48.743332,70.826083,0.984626,1.3513600000000001,2.311559,1.1174110000000002,1.071911,1.356731,0.324048,0.521636,0.386748,1.315483,2.319452,1.0232370000000002,2.290843,1.694066,2.170544,"[0.0245966, 0.089805]"
0.313677,-1.191966,-0.997893,-0.202032,2.0811580000000003,-2.040364,-0.338293,2.1606,-0.469487,-2.122054,-2.004052,2.0560970000000003,27.806465999999997,-56.722345,67.554096,31.699510999999998,-26.323439,0.35433000000000003,0.97326,1.583492,2.258051,1.815119,0.45069799999999993,0.6362439999999999,0.604884,2.287802,2.3347439999999997,1.5488540000000002,0.5816520000000001,1.0791540000000002,1.5834139999999999,0.9343049999999999,"[0.006497999999999995, 0.0245966]"
-1.81335,-1.9600080000000002,-2.2566319999999997,-1.9053959999999999,1.41004,-0.06679500000000001,-1.068342,-1.412966,-1.99615,-1.7934900000000003,1.9632040000000002,-0.5744199999999999,44.605899,-8.663625,40.45843,34.841358,-21.28881,0.6096090000000001,0.705725,0.626287,2.00482,0.50768,2.082257,1.4927540000000001,0.474688,1.079696,1.7056810000000002,1.630947,1.0693350000000001,0.812624,1.766268,0.671283,"[-0.005967399999999999, 0.006497999999999995]"
1.329336,0.713738,-1.9508560000000001,0.766628,1.044916,-1.1753719999999999,-0.13764500000000002,0.385824,0.296718,1.238976,-0.579515,0.593166,-66.060292,24.673616,-60.529215,-14.514914000000001,-52.16486,1.6028790000000002,1.8287630000000001,0.263402,0.49287,0.667956,0.333648,2.118169,2.062078,2.092466,2.081191,1.576863,1.08332,1.855386,2.218523,1.220888,"[0.006497999999999995, 0.0245966]"
1.532938,1.452775,1.9102560000000002,0.16123900000000002,0.317562,-1.87162,-1.1205209999999999,-1.898526,-0.939687,-2.1061229999999997,1.8654009999999999,0.277377,41.948498,28.409046000000004,20.839354999999998,-2.9554400000000003,-22.076991,2.1551810000000002,0.872238,2.446374,1.2129780000000001,0.770519,0.60893,0.5359689999999999,0.525402,0.6884,1.942161,0.39461,0.714055,1.113952,1.435022,2.1670130000000003,"[0.006497999999999995, 0.0245966]"
-1.40849,-2.1540630000000003,1.951329,-2.248957,-0.155086,-0.575017,0.799784,2.2325939999999997,-1.537903,-0.078408,1.673904,0.34074699999999997,44.147158000000005,-68.714254,-30.462237,-28.813083000000002,-61.49156,1.545267,1.045967,1.8216299999999999,1.8863150000000002,2.293663,1.8385939999999998,1.249554,1.251992,1.7284119999999998,1.165802,2.128349,2.161609,0.9105540000000001,0.675942,1.8114759999999999,"[0.0245966, 0.089805]"
-2.202899,1.119198,-1.493459,2.331403,0.371849,1.041397,0.941894,1.496653,-0.48927,-0.04968,-0.8858659999999999,-2.306327,53.459051,-13.733220999999999,35.75186,-18.488,72.177275,1.8769349999999998,2.141673,1.101917,1.665584,0.476804,0.641564,2.2631799999999997,0.263216,1.8679009999999998,1.056257,1.512463,0.968281,1.1469610000000001,0.481095,0.765755,"[0.006497999999999995, 0.0245966]"
0.773312,0.293576,0.264909,-0.878501,-1.058697,0.458491,1.097819,2.046222,-0.166995,1.8958650000000001,-1.371214,2.303832,-38.225196999999994,-0.882568,16.682147,26.843812,-36.04638,1.6524889999999999,0.8742030000000001,1.730176,1.5656889999999999,2.277218,2.200532,0.33934000000000003,1.044189,1.180513,1.881087,2.170795,2.301454,2.2799400000000003,0.708695,1.037223,"[-0.023139399999999997, -0.005967399999999999]"
-0.12451199999999998,-0.374399,-1.4907709999999998,0.378866,1.161362,0.299531,1.389941,1.424601,-0.38643299999999997,-1.107643,-2.221483,-0.209763,-19.738044,62.6901,32.503627,-11.548256,8.465214999999999,2.497904,1.0162120000000001,1.223696,0.9039360000000001,1.950302,2.225767,1.468156,1.051553,1.1983110000000001,1.763607,0.940572,1.187655,0.423701,1.3942219999999999,0.43338000000000004,"[-0.005967399999999999, 0.006497999999999995]"
-2.238318,-0.409173,-1.60245,-1.06531,-2.306474,-0.804241,-1.754703,-1.161473,-2.157038,-0.922,-1.7170150000000002,0.792196,61.970535999999996,-61.200906999999994,-53.637381999999995,16.518283,-27.212094,1.3201120000000002,1.363425,0.335469,1.2203680000000001,1.229008,2.436994,1.05803,2.062558,1.1561489999999999,1.8910310000000001,0.552539,2.269206,0.294163,2.240039,0.585716,"[0.006497999999999995, 0.0245966]"
0.840909,0.696217,0.462579,-0.86987,-2.072082,-0.927795,-0.15376199999999998,-1.8835819999999999,0.4619,1.843034,1.335951,-1.2115209999999998,6.5784020000000005,13.209508999999999,12.225297,-29.438895000000002,70.490352,1.845113,0.559862,1.602336,1.705016,1.706118,2.2264150000000003,1.1036629999999998,1.7712900000000003,1.817523,0.359833,1.221483,1.960159,1.3895620000000002,0.8664440000000001,1.83132,"[-0.023139399999999997, -0.005967399999999999]"
2.13882,1.0438530000000001,-0.18373,-1.337927,0.974715,1.771093,-1.400863,-1.205396,-0.5302399999999999,-0.615594,2.112576,-1.7775470000000002,41.970439,-52.830434999999994,-71.120251,31.934148999999998,17.243938,1.6581139999999999,0.921042,1.458075,0.374028,1.284438,0.30087600000000003,0.323517,0.5973149999999999,1.0767280000000001,1.317144,0.983833,1.536047,1.343964,1.7474490000000003,1.621127,"[-0.086661, -0.023139399999999997]"
-2.238682,-1.8204150000000001,1.831621,-1.991232,0.753731,1.049775,0.387646,-2.075615,0.953802,-1.000378,0.45513100000000006,1.178884,-66.367277,-34.821577000000005,53.74945400000001,67.07435500000001,68.68275899999999,0.641886,0.93268,1.307873,0.42964399999999997,2.272497,1.60986,2.17442,2.4794560000000003,1.475275,1.440192,1.302843,1.376716,0.966434,1.601218,0.923098,"[-0.086661, -0.023139399999999997]"
0.475351,1.7277770000000001,1.012334,-2.143695,1.83828,1.542958,0.22253699999999998,-1.462935,1.692206,1.629846,-0.288275,-0.70439,-36.744366,-12.557567,-5.024628,1.084148,71.275624,1.816289,2.117979,1.119612,2.065998,0.48080600000000007,0.413575,2.200356,1.8852520000000001,2.428556,0.995933,2.3981790000000003,1.19554,2.444957,2.1366549999999997,2.265003,"[-0.023139399999999997, -0.005967399999999999]"
0.519307,0.654894,-1.3390600000000001,0.795277,1.8931689999999999,0.433062,-2.170338,1.739809,0.59144,1.8953689999999999,-0.27705599999999997,-0.636925,55.588989,-65.854878,27.059233000000003,-15.463478,55.323733999999995,1.01488,1.340282,0.612731,1.417725,1.7131290000000001,0.802349,2.3333939999999997,1.357699,0.8430799999999999,0.639703,2.488938,1.077956,1.699961,2.25124,2.086859,"[-0.023139399999999997, -0.005967399999999999]"
-2.1534299999999997,-1.541717,1.794086,-1.3764049999999999,-0.116623,0.26660100000000003,-0.722791,0.594908,-1.0764639999999999,-1.261464,-0.378779,0.291671,39.332215000000005,6.529383,-60.661817000000006,6.8434800000000005,-31.639181,1.229207,1.277414,1.4906139999999999,0.5037560000000001,1.3708559999999999,1.472234,2.086611,0.41412,2.367157,1.814793,1.71879,1.459264,2.346302,2.29541,1.951396,"[-0.005967399999999999, 0.006497999999999995]"
1.105692,-2.2921110000000002,0.268712,1.7758099999999999,-2.2408200000000003,-0.054803,-2.152428,1.153447,-0.788797,-1.3658780000000001,-2.26425,2.00478,24.357244,22.192465,-61.237216000000004,-63.893438,-7.012617999999999,1.958998,2.131399,1.677847,1.832012,0.869813,2.203472,0.25145700000000004,2.242871,0.934319,1.8462779999999999,2.149996,1.484841,2.475568,1.37011,2.435394,"[-0.086661, -0.023139399999999997]"
-0.908435,0.068385,-0.474313,1.58149,2.2279310000000003,0.194904,0.6480060000000001,0.70072,0.744324,-1.545402,1.1191360000000001,2.1692259999999997,-50.068065000000004,6.03428,18.140466,-63.18526899999999,45.185747,1.17769,1.6942439999999999,0.649849,2.0081,1.6455939999999998,2.004243,2.0559950000000002,1.117008,1.051282,1.141404,1.570692,0.8639209999999999,2.169018,1.683334,1.798502,"[-0.086661, -0.023139399999999997]"
-0.7296060000000001,-0.8497520000000001,1.467489,-0.55689,-0.841858,2.2051540000000003,-0.917325,1.4549370000000001,0.54222,-0.673808,-0.822592,0.84157,-74.151783,-69.015211,11.350224,-36.789574,-22.369669000000002,0.369496,1.618394,1.6049200000000001,2.395739,0.6770520000000001,2.459071,0.8566,0.622621,1.145089,0.516003,2.465762,0.819419,1.221689,0.928299,1.920195,"[0.0245966, 0.089805]"
-1.8192080000000002,-1.4536129999999998,-1.8545470000000002,-1.628456,0.094951,-1.654282,-0.41641999999999996,-0.87223,0.666971,-0.9978469999999999,0.578368,-1.030917,26.345853,-5.24948,-28.014428000000002,11.513183,2.064784,2.167306,2.1585959999999997,2.020873,0.30807399999999996,2.051786,2.360621,2.2083310000000003,0.912774,1.999465,0.505668,2.018697,1.9842509999999998,1.309627,0.6434880000000001,0.85372,"[-0.023139399999999997, -0.005967399999999999]"
1.530137,1.5025899999999999,0.338354,-1.142908,-1.162291,-1.7738630000000002,1.9651290000000001,-1.211877,-1.0630629999999999,-2.227599,0.6721590000000001,1.383994,13.689028,-28.506390999999997,-6.9117169999999994,-65.235405,-61.447390000000006,1.430685,1.280355,1.4299899999999999,0.8485540000000001,0.397999,1.415835,1.4441,1.7323540000000002,2.1691830000000003,2.212016,2.106343,1.301264,1.844984,0.6427350000000001,1.690146,"[0.0245966, 0.089805]"
0.8258200000000001,1.565984,0.794233,-1.5159719999999999,0.9423020000000001,-1.066066,-0.8622,-0.39723,1.204294,0.861308,-0.458978,0.14013699999999998,-28.865061999999998,-35.097506,66.210088,-57.057021999999996,-7.360407,2.029587,0.511075,0.6383909999999999,0.682001,2.385583,0.9934,0.328854,0.306361,0.25338,0.81272,1.133844,0.513066,0.341963,2.379747,1.911541,"[0.0245966, 0.089805]"
-1.262609,-0.7822680000000001,-0.02009,1.644875,-2.171418,-2.279195,0.587667,-0.25005900000000003,0.709036,-0.867079,-2.286275,-0.599595,-73.320247,-43.396796,-69.945542,-24.717737,68.989728,1.530352,2.377495,2.30884,0.4253,1.270075,1.9078549999999999,2.063611,0.8674200000000001,2.476928,1.725701,0.598665,1.254799,1.657419,0.49008599999999997,1.1321649999999999,"[-0.023139399999999997, -0.005967399999999999]"
-2.253241,-1.467362,-2.025111,1.543034,1.497989,-1.598052,2.15806,-0.738071,-1.7520779999999998,0.546942,-1.4184290000000002,0.44666999999999996,11.11583,73.747196,19.127499,25.878546,-59.283390000000004,2.4860330000000004,1.759379,1.879825,1.221661,0.459697,1.1280139999999999,1.540031,0.8102060000000001,1.63478,2.49883,0.836875,2.113198,1.765312,0.350215,1.570573,"[-0.023139399999999997, -0.005967399999999999]"
1.547539,1.81075,0.663553,-1.8885939999999999,1.061916,1.810907,-1.410524,1.34982,0.978642,1.79129,-1.235716,-1.1743569999999999,-61.299043000000005,-53.023571999999994,-17.180861,-8.730327,-30.606746,0.511229,0.9755360000000001,1.582667,1.886829,1.9355470000000001,1.745799,0.901927,1.9363119999999998,1.094729,2.368304,0.840618,2.01084,0.431175,1.006333,1.688943,"[-0.005967399999999999, 0.006497999999999995]"
0.19635999999999998,1.553179,-2.350579,-2.218864,1.401581,-0.8591049999999999,-0.211272,2.299698,0.014991999999999998,2.215935,1.216588,0.14591300000000001,61.24261800000001,4.677756,19.047521,31.683190000000003,-0.6263340000000001,0.973161,2.159532,2.0022740000000003,0.47066899999999995,1.035269,2.016944,1.776658,2.044212,1.077331,2.4586740000000002,0.9385450000000001,0.8744299999999999,1.043987,2.2915799999999997,0.578638,"[0.006497999999999995, 0.0245966]"
-0.643544,-1.107948,2.079469,-2.157718,1.7747130000000002,-1.8201319999999999,1.871593,0.670169,0.918674,-2.3429130000000002,-0.611799,-0.078162,34.577187,38.780213,29.032302,-4.101106,72.71259,1.8324509999999998,1.509851,2.0626189999999998,2.193532,1.9419650000000002,1.599094,1.22953,2.2082900000000003,2.475447,1.587835,0.9850629999999999,1.946811,2.049927,0.375965,2.3412029999999997,"[-0.005967399999999999, 0.006497999999999995]"
1.226105,-0.123492,-2.076662,2.206597,-0.225802,-1.588853,1.247008,-2.251728,0.400735,1.144465,-0.951944,-0.756119,39.133321,-36.27102,-7.041084,10.506473,32.283649,1.9942529999999998,0.655569,1.402317,1.4991299999999999,1.870052,1.222442,2.3260419999999997,1.5433059999999998,1.844789,1.8633490000000001,1.055002,0.671503,1.458948,1.5328979999999999,2.409893,"[-0.023139399999999997, -0.005967399999999999]"
1.847823,1.716492,-0.155067,-0.25190300000000004,-2.015577,1.564509,-0.436119,-2.086983,-1.618023,1.084752,-0.8100649999999999,-0.670495,-53.793036,-49.55795,29.533793,24.460701,-38.996466999999996,0.420745,1.2189510000000001,2.158109,0.5871649999999999,1.484716,0.362888,0.816312,0.751201,2.183177,1.1584020000000002,1.513841,1.627738,1.1463940000000001,2.198407,0.62885,"[0.006497999999999995, 0.0245966]"
-1.165378,-1.82008,-1.973357,-0.419443,0.151394,-0.21714099999999997,-2.094204,-0.454859,-1.3199969999999999,0.738316,1.154601,-0.237637,68.041974,-18.542588000000002,54.731139,66.247231,-32.782764,0.9261959999999999,0.3245,1.367544,2.0645279999999997,0.516656,2.1956029999999997,0.747001,1.340751,1.7492279999999998,2.2778110000000003,0.912113,2.128574,1.4383,1.002716,1.641319,"[-0.086661, -0.023139399999999997]"
0.817384,1.1653120000000001,0.707753,1.126586,0.153111,0.376494,-1.007517,-1.7184,1.088086,-1.318285,1.242772,1.966218,-55.834337,-7.7092089999999995,31.316775,-8.959164999999999,23.315827,2.411622,2.126601,2.026584,1.7963959999999999,0.771234,1.385117,0.408136,0.7980149999999999,1.488717,2.365582,2.335342,0.3504,2.430645,2.345344,1.953545,"[0.006497999999999995, 0.0245966]"
1.849695,0.197104,-0.089514,-1.218053,-1.20359,1.557292,0.799295,-1.2754,1.018101,0.532959,-0.813787,-1.966188,72.191058,-34.890461,-53.973654,64.802378,-16.427998000000002,2.04465,1.686834,2.123141,2.3864549999999998,2.1500340000000002,2.117386,2.405566,1.592362,0.5710189999999999,2.36658,1.118443,0.429428,0.901719,0.697745,1.500469,"[-0.023139399999999997, -0.005967399999999999]"
-0.06769299999999999,-2.023575,-0.911869,-1.100554,-0.8839319999999999,1.9212930000000001,1.884367,-1.415953,-0.36377,-1.9107490000000003,0.9679190000000001,0.6499520000000001,13.807315,9.541276,10.22529,-43.555946,-44.788808,0.392615,0.926292,1.931334,0.673712,0.332129,1.339904,1.020308,0.312286,0.832667,1.133965,0.292717,0.44425200000000004,0.285979,1.943503,0.455667,"[0.0245966, 0.089805]"
0.533135,2.144835,-1.528394,-0.490911,0.657991,-1.127542,-2.0880490000000003,-0.675581,-2.336995,-0.11514400000000001,1.561273,1.742141,66.786467,30.146967999999998,-19.903828,-23.635492000000003,-41.717301,0.734746,2.369885,0.399997,1.241775,1.018048,0.586425,0.29941100000000004,0.451499,0.5921850000000001,0.359225,2.251996,1.290424,1.9054659999999999,2.417119,2.275929,"[0.006497999999999995, 0.0245966]"
-1.9385290000000002,0.6063649999999999,-1.723757,0.581203,-0.5089670000000001,-1.2274049999999999,1.8428369999999998,-1.977945,-2.137108,-0.55024,-2.171895,-0.87579,66.751856,48.448551,74.800427,20.769967,30.834929,1.264757,0.26905300000000004,0.965943,2.35822,2.3523400000000003,0.28488600000000003,1.582131,1.867629,0.992922,1.294139,1.350759,1.2119030000000002,0.705635,1.349805,0.9142379999999999,"[-0.023139399999999997, -0.005967399999999999]"
-2.341159,0.589411,0.789502,-0.921457,-2.0177549999999997,-2.051804,0.589074,-0.162904,-0.024432,-0.654334,1.320791,-1.528508,73.693249,12.434794,41.584371999999995,58.53499300000001,-52.364585999999996,0.751057,2.019396,2.484165,1.864988,1.609326,2.189717,0.822517,1.542973,0.754143,2.1332240000000002,0.854975,0.308841,1.4407940000000001,2.432012,0.567491,"[0.006497999999999995, 0.0245966]"
2.115061,2.284687,2.1839619999999997,1.047461,-0.802304,-2.173197,0.803059,0.735635,-1.493391,-1.243395,1.7058099999999998,-0.62602,39.479292,-71.544366,-46.158619,12.096694,59.130793000000004,2.2934959999999998,1.28223,1.4425569999999999,0.55677,1.381407,1.055345,1.9312340000000001,1.2472159999999999,2.458108,0.42933000000000004,1.5022360000000001,2.3264,0.811665,1.3979190000000001,1.833136,"[-0.023139399999999997, -0.005967399999999999]"
-0.41438,0.43087600000000004,-1.21404,0.275837,-0.9913049999999999,2.150642,1.81112,2.175737,-0.521087,-2.2921099999999996,0.284165,2.3145919999999998,18.466973,24.416369,-34.093039000000005,-1.699789,-68.354069,1.7225529999999998,1.7005869999999998,1.51394,1.036942,0.8876719999999999,0.8490219999999999,1.509456,2.1707669999999997,1.833855,0.357481,2.1853130000000003,1.047116,0.885333,2.038374,1.956432,"[-0.005967399999999999, 0.006497999999999995]"
-1.8790650000000002,0.99082,-0.876468,0.129894,1.287895,1.6433200000000001,-0.035497,1.872883,-1.212337,0.622923,-1.460241,-0.157065,-27.118377000000002,71.444927,24.895770000000002,73.20185500000001,3.5741080000000003,2.425573,0.35126799999999997,1.262527,1.033577,0.577417,1.894032,1.501775,1.3294219999999999,0.342844,1.436113,2.49815,0.665481,1.4880309999999999,2.088479,0.312156,"[-0.086661, -0.023139399999999997]"
0.126302,2.181378,0.040743,1.46539,1.862584,0.044094,1.234773,-0.536308,1.0672700000000002,2.260662,-1.0513290000000002,1.78121,-32.279665,25.676551999999997,-4.183933000000001,30.633941999999998,64.658395,0.829744,1.5142149999999999,1.168302,1.399566,2.499103,0.916798,2.1258630000000003,0.8883139999999999,0.394228,1.046193,1.115772,0.52486,0.5700069999999999,1.106724,1.4621950000000001,"[0.006497999999999995, 0.0245966]"
-1.70049,0.511092,-0.7636229999999999,2.334603,2.321711,-2.303243,1.6777380000000002,-1.2012200000000002,-1.0213290000000002,1.7617720000000001,2.154225,0.7689699999999999,-64.056115,-41.1195,-45.43456,31.341734000000002,-39.472034,2.027951,2.273403,1.0788659999999999,1.242257,2.354693,1.578135,2.221102,1.816872,0.670037,1.556994,2.395728,0.502033,1.6623990000000002,0.943681,1.6943840000000001,"[0.006497999999999995, 0.0245966]"
-1.881846,1.367215,1.16657,-1.715575,1.442855,0.11005899999999999,-2.210782,0.5806899999999999,0.299806,1.301015,0.6715479999999999,0.52966,9.418352,44.250464,17.550504999999998,71.338638,38.485507,1.7636180000000001,1.136123,0.5737140000000001,0.41718299999999997,2.09108,1.288766,1.0332940000000002,0.32048499999999996,1.3912120000000001,1.603201,0.495375,2.270616,1.486249,1.392297,1.8399349999999999,"[-0.023139399999999997, -0.005967399999999999]"
-2.028173,1.912538,0.8296549999999999,0.057651999999999995,-1.790909,-1.779826,0.702642,0.060139,2.312447,2.2176080000000002,1.053316,-1.359336,-22.181244,-50.169198,-43.718118,-70.417384,-4.974222,0.598701,1.8717240000000002,2.3208759999999997,2.463016,1.9167889999999999,1.473324,2.4010540000000002,2.268696,0.725797,0.46593100000000004,2.400839,0.896915,0.94396,1.8855970000000002,1.484564,"[-0.023139399999999997, -0.005967399999999999]"
0.623609,0.643912,-2.1313869999999997,1.3539809999999999,0.230382,-1.547456,-0.42081899999999994,0.583448,-0.478074,-0.366736,0.068754,1.0092889999999999,-47.398403,25.036564000000002,39.528471,5.009448,43.800084999999996,0.595317,1.2501010000000001,1.450754,1.075395,1.40927,1.354156,2.0479380000000003,0.685,1.050833,0.350771,1.911425,1.314237,1.6240860000000001,0.511376,1.202588,"[-0.023139399999999997, -0.005967399999999999]"
-0.7781020000000001,-0.675077,1.411905,-1.705899,-0.869242,-0.9412520000000001,-0.139559,1.203665,-0.295707,1.618722,1.2341959999999998,-0.8057479999999999,38.36892,16.436655,-49.136276,66.614429,-11.286371,2.274361,1.427985,0.892058,0.326437,2.431582,2.3416959999999998,1.3862,0.6156739999999999,1.379289,1.4675559999999999,2.220581,2.05012,1.360306,1.910607,1.063216,"[-0.086661, -0.023139399999999997]"
-0.931767,-0.937099,-1.01159,0.5000060000000001,1.407657,2.293417,-1.874279,1.308406,-2.341163,0.527636,-0.745771,0.7801170000000001,49.927228,26.920643,55.255242,24.854789999999998,-15.537815,1.464249,0.63178,2.0717369999999997,2.4299459999999997,1.8608740000000001,2.205124,1.019488,2.2819279999999997,0.35681599999999997,2.256857,1.986431,1.9533060000000002,0.95906,1.415057,1.8667939999999998,"[-0.023139399999999997, -0.005967399999999999]"
0.8960389999999999,-1.066993,-2.319419,-1.5965260000000001,-0.46384,-1.466289,1.879488,1.404404,-0.5398149999999999,-1.324566,-0.646425,2.298403,57.600526,-7.963577000000001,-43.834302,-73.117254,68.30891899999999,0.895075,1.521658,0.257363,0.254556,0.320583,0.785571,1.600179,1.451595,1.7065830000000002,1.046666,2.312141,1.8990240000000003,2.149706,1.106458,1.486467,"[0.0245966, 0.089805]"
-0.08481,-2.258127,1.247442,0.33811599999999997,-0.426933,1.5015129999999999,1.087909,0.418074,0.400486,1.682231,-1.07124,1.705493,-39.726581,-34.641594,-71.273911,-0.62331,24.028885,2.177021,1.199445,0.576218,1.9986580000000003,0.45377399999999996,0.578188,1.359906,1.938667,2.427353,1.023888,1.9902369999999998,0.656768,1.296001,1.134968,1.4105370000000002,"[-0.005967399999999999, 0.006497999999999995]"
-1.61786,-0.8799,-0.9993620000000001,-1.3145870000000002,2.130746,2.012674,1.475689,0.603719,0.933168,0.92368,1.675118,1.900637,-40.827096000000004,68.991576,41.418490999999996,-29.416527000000002,-3.561001,1.378941,2.3688279999999997,0.650355,1.508987,1.050893,1.360032,1.8142009999999997,0.781968,1.789823,0.559628,2.1628990000000003,2.350319,2.305869,2.233248,1.200451,"[-0.023139399999999997, -0.005967399999999999]"
1.683927,-0.840551,0.608586,-2.0967830000000003,-1.394307,0.593917,1.11779,-1.593744,-0.834408,0.180335,0.829857,-1.263575,58.205891,-33.588058000000004,-64.48717099999999,64.12122,-64.658987,1.771016,1.7245869999999999,2.13271,1.215731,2.045639,0.305218,1.292111,1.010116,2.2724330000000004,0.528648,1.228988,2.1041950000000003,1.209549,1.6463430000000001,1.091251,"[0.006497999999999995, 0.0245966]"
1.467021,0.996067,-2.227128,-0.83134,-0.095049,0.011127,-1.483027,-1.408188,-1.794775,-0.7868689999999999,-1.9384970000000001,1.1308850000000001,54.694552,51.334094,-27.8745,-36.721944,64.291505,0.584797,2.186113,1.0076180000000001,0.79332,1.3315700000000001,0.44047600000000003,2.077321,1.7872569999999999,2.43214,0.478861,1.459473,1.357162,0.82506,1.526399,1.19478,"[0.0245966, 0.089805]"
-2.316817,-0.266472,-1.827751,1.056915,-2.141292,-0.17683800000000002,1.4021,-1.5610709999999999,1.6590150000000001,-0.143353,-1.3108309999999999,-0.716951,-7.169385000000001,-45.858222,-39.140281,69.302801,22.182169000000002,2.360668,0.745521,1.213697,1.6050799999999998,0.588575,0.429778,2.282391,1.389453,1.294724,2.174987,0.762954,1.726341,2.362192,1.6094549999999999,2.10098,"[0.0245966, 0.089805]"
2.0471779999999997,1.762447,-0.628384,-0.784359,-2.1718990000000002,-0.939484,1.3159450000000001,1.850079,1.9315689999999999,0.23301599999999997,0.297123,-1.3903860000000001,16.365264,-49.004382,33.353302,18.942852,72.514562,1.4085370000000002,0.27905100000000005,0.254374,1.761613,1.18204,0.548676,0.34826999999999997,0.36758,0.918113,1.723954,0.48926099999999995,0.762475,0.41563500000000003,0.8195959999999999,1.952702,"[0.006497999999999995, 0.0245966]"
0.829686,0.571108,-0.5228689999999999,0.752119,2.244237,0.93419,-0.751586,2.006243,1.781796,-0.583855,-1.6652529999999999,-1.029839,3.4916709999999997,34.514902,41.964192,-7.820786999999999,-43.971303000000006,1.7397580000000001,0.60485,1.720341,0.522993,0.690461,0.5805239999999999,2.374646,1.6739099999999998,0.9056,0.677408,1.6981810000000002,1.5701319999999999,0.45641800000000005,2.261918,1.5625149999999999,"[-0.023139399999999997, -0.005967399999999999]"
-0.450805,0.83601,-1.5241280000000001,0.5250279999999999,-2.161942,1.4808290000000002,2.1628950000000002,0.398898,-1.449442,2.280378,0.459099,1.891189,4.609364,69.587885,13.584824,20.14235,-17.529906,0.998,1.138395,0.508351,2.102475,1.551121,0.440216,2.217145,0.559723,1.506473,1.548589,0.639153,2.2385099999999998,1.884264,1.577958,1.4965870000000001,"[0.006497999999999995, 0.0245966]"
2.143226,-0.306345,1.8947169999999998,-1.82191,0.256173,-1.6154469999999999,1.96803,0.423655,-0.045786,-1.411616,1.846077,0.647463,32.160368,69.310951,9.160457000000001,59.809943999999994,-74.275442,0.664794,1.1866450000000002,1.43642,0.908723,1.413956,1.3532950000000001,1.073754,0.8382700000000001,0.8118,1.428328,2.156156,1.512791,1.984562,2.037907,0.858252,"[-0.086661, -0.023139399999999997]"
1.282175,-0.23667,-0.457031,-0.128805,-1.8369659999999999,1.693832,0.6900470000000001,0.43011400000000005,0.11453900000000002,-2.305001,0.394246,0.47201099999999996,68.0771,-28.18038,72.358359,-73.066558,20.361045,2.246162,2.2426209999999998,1.22745,0.996707,1.899183,0.322679,2.266278,0.583479,0.278063,1.6627919999999998,0.793799,0.378805,0.573654,1.6484130000000001,2.119891,"[-0.023139399999999997, -0.005967399999999999]"
-0.132615,0.095275,-0.9266280000000001,0.612598,-0.627941,1.941243,-2.101394,1.2233100000000001,0.015353,-1.140534,1.0497020000000001,-0.850741,-32.446419,73.034155,35.037529,-24.257405,5.791278,1.135214,1.033885,1.248133,2.11548,1.881536,0.725268,0.585299,1.617637,2.376385,1.6580409999999999,1.938319,1.072603,1.735334,0.5108090000000001,0.666078,"[0.006497999999999995, 0.0245966]"
-1.8869759999999998,-0.032746,0.987532,0.413332,0.802815,1.345024,0.49085,-1.6773790000000002,-2.192167,-2.299682,0.253132,-0.8977870000000001,-1.121359,53.32429499999999,-28.570220000000003,-29.685065,-16.893539,1.6793580000000001,2.4753540000000003,2.265885,0.725701,1.101032,0.29498,2.4780290000000003,2.231751,0.794254,1.2818379999999998,1.59575,1.262833,1.683355,2.152397,1.340655,"[0.006497999999999995, 0.0245966]"
-1.1167559999999999,0.122688,-2.0165889999999997,-1.304475,-2.2715509999999997,1.8237459999999999,2.329398,-0.332938,-2.084331,0.540671,1.563498,1.432181,-6.6532979999999995,-71.982001,-51.495105,21.77115,57.713930000000005,0.595404,0.46083,2.176609,1.01394,1.287193,1.596881,2.2783919999999998,1.6862599999999999,1.469319,0.340549,1.112909,1.908983,0.784601,1.045505,0.810441,"[0.006497999999999995, 0.0245966]"
-0.181774,-1.454035,0.480911,0.931726,0.254027,0.015512999999999999,1.544359,0.198828,0.61882,0.257506,1.927418,1.146944,-54.105035,-43.330227,-1.1284889999999999,-66.521289,-73.29694599999999,2.098538,0.6355569999999999,0.309186,0.48083000000000004,0.81748,2.385411,0.353621,0.309227,1.180713,0.748607,1.335855,0.46498100000000003,2.185392,2.37965,0.27221799999999996,"[0.0245966, 0.089805]"
-1.704891,1.941986,0.9498969999999999,-0.6476350000000001,0.808882,-0.35532199999999997,-1.301442,1.5693110000000001,0.17183099999999998,-0.7383529999999999,-1.782461,-1.172806,18.207269,9.565708,-29.148594,-0.425439,49.650799,1.839689,1.6559709999999999,0.9057700000000001,1.271896,1.008628,2.00778,0.7528779999999999,1.1147799999999999,1.864566,1.266182,1.716563,2.2683400000000002,1.486634,1.114519,1.966706,"[-0.005967399999999999, 0.006497999999999995]"
-0.869267,-1.3638709999999998,-1.513288,-1.064818,1.250608,1.7140369999999998,0.98295,-1.2028,0.683307,0.245342,0.125021,-0.500502,-10.1175,55.172206,-20.739854,25.272501000000002,-45.081495000000004,0.854799,1.861286,2.376331,0.738974,1.4427809999999999,2.078407,2.033042,2.3385849999999997,0.85091,1.737666,1.455429,0.888509,1.4134010000000001,1.0245229999999999,1.4039190000000001,"[-0.023139399999999997, -0.005967399999999999]"
0.15671,-0.40066799999999997,-0.016684,2.337497,-0.8689610000000001,-0.9354309999999999,-1.26688,-1.88543,-2.321907,-0.9945370000000001,-0.331891,1.384556,14.682972,26.710918,-19.605685,37.255733,57.097882999999996,0.536671,1.078497,1.793032,0.496163,2.008254,1.9741819999999999,0.818338,1.052822,2.275236,0.387253,0.8051,1.310335,1.3073629999999998,0.842859,1.424205,"[-0.086661, -0.023139399999999997]"
0.488041,-1.759524,-2.078005,-1.510788,-1.463151,-1.9365430000000001,0.9959680000000001,0.827354,-0.91706,1.195916,1.427764,0.940916,-25.669461,-26.624376,-25.889415,26.595974,-1.4654989999999999,0.915417,1.415621,2.340174,0.5539810000000001,1.7523919999999997,1.4560170000000001,1.785023,0.8803479999999999,1.5048860000000002,1.873587,2.134704,0.966409,1.186448,0.380708,1.063345,"[-0.005967399999999999, 0.006497999999999995]"
0.9475290000000001,1.9604529999999998,0.31148400000000004,-0.35125300000000004,1.1222459999999999,-2.100882,0.406644,1.496768,1.4466450000000002,-2.170079,1.371215,-2.287125,-23.782099,44.264210999999996,-51.405683,24.689970000000002,64.323091,1.797737,0.80866,0.39268600000000004,2.120046,2.107275,1.214605,1.122089,0.943435,2.060259,0.765836,0.648215,1.544923,2.0164619999999998,0.420256,1.9853560000000001,"[-0.023139399999999997, -0.005967399999999999]"
-1.633247,-0.321365,-0.786453,0.338265,2.0737389999999998,0.503369,1.386044,1.89562,-0.778716,-1.5755860000000002,-1.951713,0.49564600000000003,-37.701378999999996,-47.074138,74.955407,-74.46955600000001,-9.821945,2.4636310000000003,1.003026,2.358013,1.127544,0.381364,0.8364520000000001,1.744819,2.431444,2.2855779999999997,0.9615459999999999,0.45143599999999995,1.7814169999999998,1.0233809999999999,2.456737,2.133506,"[-0.086661, -0.023139399999999997]"
0.516388,-1.280369,2.320219,0.9007860000000001,-1.3995440000000001,2.1151880000000003,-0.30635,1.816566,-0.542841,-0.345494,-1.048215,2.280103,17.307991,45.411312,27.916605999999998,-5.600137999999999,-71.527576,0.415376,0.9672559999999999,1.9273779999999998,1.690969,1.869158,1.9366970000000001,0.8141689999999999,0.7333930000000001,2.1287540000000003,2.2268779999999997,2.1345400000000003,0.46315500000000004,0.744881,1.7232029999999998,1.366136,"[-0.005967399999999999, 0.006497999999999995]"
-0.129131,2.098902,-0.690325,-0.388579,0.5157189999999999,1.611149,1.192615,-2.226511,0.104058,0.60488,1.59191,-1.7190779999999999,-28.039877,33.781363,13.367621,-30.391676,-42.892741,1.400506,0.311454,0.35762,2.274096,1.477614,0.257284,1.177235,0.7878649999999999,1.8953490000000002,1.1224049999999999,1.7591990000000002,1.104419,0.967934,2.0716189999999997,0.44578,"[0.006497999999999995, 0.0245966]"
1.049051,-2.353847,-0.593817,0.559442,1.32981,-0.752548,-0.029306,2.259848,-0.5887859999999999,0.282613,-0.21370999999999998,-0.977525,-59.796915000000006,-6.744312,48.351779,-51.649023,-15.133466,2.152517,1.099669,2.1309970000000003,1.6613209999999998,0.82537,2.242547,2.243088,2.336952,0.40007600000000004,0.32650999999999997,1.399936,1.9737900000000002,0.9835219999999999,0.807661,1.6034389999999998,"[0.006497999999999995, 0.0245966]"
1.156992,2.244397,-1.087664,-1.012084,1.62673,-0.8362940000000001,1.468407,0.7407090000000001,-1.035295,-2.063542,1.2322799999999998,-0.019293,28.712769,25.504963,-38.093393,-35.652228,43.002705999999996,2.072127,2.2426619999999997,1.926206,2.236392,2.292461,1.88842,1.67396,1.7522919999999997,2.0272490000000003,1.73216,1.155329,1.6136139999999999,2.2520119999999997,1.560798,1.075664,"[-0.023139399999999997, -0.005967399999999999]"
-0.292984,0.25609499999999996,1.773582,-1.9852599999999998,2.166433,-1.384264,-0.252429,-1.422077,0.388664,0.898331,-0.242977,1.9348009999999998,-63.421730000000004,-29.014823,-2.1294720000000003,59.972483999999994,-42.463642,1.578465,1.0040069999999999,0.8440799999999999,1.702898,2.1136459999999997,0.29039499999999996,1.926782,0.671383,1.6876080000000002,1.6237409999999999,1.456513,1.1187799999999999,1.579065,2.097922,1.522889,"[0.0245966, 0.089805]"
-0.5237649999999999,-0.17121199999999998,1.7094880000000001,-0.06175,-1.103232,1.2275989999999999,1.411718,-0.132664,-0.72964,-1.424762,-2.32907,1.12742,1.071821,14.092455,1.899531,-24.579622,-9.710714999999999,1.255188,1.439125,1.369817,2.016245,1.283172,1.514259,1.902364,2.039098,0.6168899999999999,1.567947,1.979746,2.086757,0.6234390000000001,1.394015,1.4532129999999999,"[0.006497999999999995, 0.0245966]"
-1.006142,-2.173246,-0.019237,1.8358619999999999,-1.381536,-1.541884,-1.019484,-0.22084099999999998,1.6796470000000001,-2.095551,0.46940699999999996,0.790912,-25.217164,-74.881697,-36.688193,31.537357,-51.640917,0.941508,1.175343,0.49402399999999996,2.0676799999999997,1.750421,2.0779360000000002,0.862347,0.47413500000000003,0.78447,1.08969,0.9240790000000001,0.7513270000000001,2.0537099999999997,0.9603709999999999,0.947975,"[-0.023139399999999997, -0.005967399999999999]"
-1.7496770000000001,-1.515641,1.790593,1.188669,2.138879,2.0296060000000002,-1.39952,-2.190627,0.035658999999999996,0.84144,0.20668499999999998,0.719625,-62.45519399999999,15.555304999999999,-11.996195,-20.051997,36.089334,0.676528,0.405779,1.67982,1.243886,0.489774,0.37456500000000004,1.3084799999999999,1.632508,0.30596999999999996,0.43825200000000003,0.700865,2.187235,1.861189,0.75997,1.068434,"[-0.023139399999999997, -0.005967399999999999]"
0.28282399999999996,-1.371407,-0.94626,0.51423,0.14468499999999998,0.127181,-1.890002,0.94415,1.7132779999999999,-2.341519,-0.747441,0.980123,-50.41365,47.779641,-67.56809399999999,33.045699,-50.934803,1.206452,1.34207,1.41279,2.008124,2.046682,2.0856939999999997,0.7564489999999999,0.383631,0.689856,1.6665240000000001,0.524945,1.992647,0.671048,0.558539,1.858845,"[-0.086661, -0.023139399999999997]"
-2.322632,0.950175,-0.696546,-1.270707,-0.23197199999999998,-1.616082,0.715752,-1.0899889999999999,2.3274630000000003,0.134792,-1.2075420000000001,1.102675,-37.355438,67.151237,10.842542,-19.400221,40.48425,1.6567509999999999,0.514649,2.200138,0.465908,2.008697,0.413155,1.9003900000000002,0.356075,1.048942,2.3123720000000003,1.285403,0.776853,1.3193270000000001,1.675727,2.190163,"[0.006497999999999995, 0.0245966]"
-1.9159419999999998,-1.480639,1.0251270000000001,0.816639,-1.9451,-1.4507450000000002,-0.775917,-1.650737,-2.1067150000000003,1.324519,-0.141129,-1.6289049999999998,62.991951,5.726013,-62.903853000000005,-25.052473000000003,-6.919116000000001,0.7813060000000001,1.9135790000000001,1.520412,1.812878,1.040697,0.987927,0.580913,2.153957,0.553078,2.324452,1.8169549999999999,2.070912,2.0647290000000003,1.65367,0.48840900000000004,"[-0.023139399999999997, -0.005967399999999999]"
-1.043475,1.834955,2.2222310000000003,-1.350207,1.937617,-1.789522,-2.032934,2.006654,-0.7388779999999999,-1.177897,-0.174654,0.406008,7.518205,58.466995,4.787495,63.428875,-0.8954110000000001,0.637528,1.929889,1.146256,2.126775,0.46341499999999997,0.621205,2.096079,2.044483,1.131633,1.5995059999999999,1.398623,2.412574,2.372864,0.9738899999999999,0.9140940000000001,"[0.0245966, 0.089805]"
-0.563538,0.510972,1.941966,0.611441,-1.223875,-0.086668,-0.507347,-2.267189,-0.26123,1.4515129999999998,-0.46271,-1.325908,11.162517,-41.5775,56.958738000000004,5.504215,-40.664184999999996,0.7305560000000001,1.707672,1.345701,1.7016959999999999,2.159686,2.333397,1.403008,1.84822,1.027815,0.47921400000000003,0.6506850000000001,0.309431,2.354284,1.454421,1.955799,"[-0.005967399999999999, 0.006497999999999995]"
-2.112168,-0.781262,-1.96005,1.7559049999999998,-2.193171,-0.317494,-1.692114,-0.08391,-1.269332,-0.670259,2.273927,0.41472700000000007,21.856625,-5.707469000000001,74.574921,-19.302744,28.785953000000003,2.207698,1.530155,1.311623,0.444528,0.440195,1.861507,1.601091,1.0450270000000002,1.777945,1.163117,2.0141240000000002,1.629859,0.786359,1.338609,1.757728,"[-0.023139399999999997, -0.005967399999999999]"
1.2324950000000001,-1.111674,0.713813,-0.6841079999999999,0.42926499999999995,-0.010653,0.031382,-0.34356,-1.540729,-0.45051,1.080782,-1.551911,3.4155900000000003,-44.18196,-66.206671,-35.517777,52.727129000000005,1.14778,0.7310949999999999,1.7565259999999998,1.185006,0.8919219999999999,0.28620300000000004,1.212868,1.178459,1.11877,1.422606,0.49311499999999997,0.277991,0.44905100000000003,2.203231,0.71082,"[0.006497999999999995, 0.0245966]"
1.3286440000000002,-1.4873379999999998,1.5252709999999998,-0.170664,1.491953,0.625007,0.581331,1.6429220000000002,-2.003419,-1.438239,2.0711619999999997,-0.393518,74.232028,67.699772,-69.932001,52.860558999999995,-22.59153,0.687366,0.307437,0.341386,1.667356,1.002597,1.9045990000000002,1.352724,0.47600000000000003,0.6290789999999999,1.6812040000000001,1.98947,1.27968,1.339546,1.7516150000000001,1.8859139999999999,"[-0.023139399999999997, -0.005967399999999999]"
-1.111335,1.6979369999999998,-1.003875,-1.779666,-1.313975,-1.7160229999999999,-1.3847969999999998,0.204206,1.470134,1.4811290000000001,-2.208684,-1.870095,30.005115000000004,-4.036999,-49.846416,-18.70826,-29.733734000000002,2.352031,1.8437080000000001,1.7051349999999998,1.457753,1.706306,0.881743,2.450442,2.0855189999999997,2.321273,2.379064,1.6755380000000002,1.2616610000000001,2.231719,0.25102399999999997,1.7110779999999999,"[0.006497999999999995, 0.0245966]"
1.253971,1.693825,0.577782,-1.459682,-0.18045999999999998,1.790057,1.603112,-1.939616,1.178265,1.6395939999999998,-1.394256,1.45007,-36.687537,42.561972,-10.93565,-45.462355,14.197884,0.982559,0.37054699999999996,1.291401,0.319687,1.4755790000000002,2.0513529999999998,1.837492,0.7277779999999999,2.2641009999999997,2.2513799999999997,2.184693,1.8930310000000001,0.41667299999999996,0.280445,1.191108,"[0.0245966, 0.089805]"
-0.408752,0.7674,-0.11596600000000001,1.8876509999999997,1.9517200000000001,-0.375857,2.290591,-2.262352,0.923278,-0.35601700000000003,1.154143,1.494191,17.688325,-12.325289,-1.124028,8.454546,45.559687,0.9499299999999999,0.9715389999999999,1.912051,0.587467,2.058263,0.976928,2.478195,0.526335,0.603995,0.8521479999999999,2.309643,0.42540600000000006,0.792155,2.002882,1.6819849999999998,"[-0.005967399999999999, 0.006497999999999995]"
-0.591418,-1.535596,0.989208,0.306672,-1.1241700000000001,-1.963024,-1.100495,0.109898,-0.20504499999999998,-1.4302469999999998,-0.260924,1.8922700000000001,-16.841941000000002,-12.499208,-74.182552,13.844527,34.961314,2.046964,2.325862,0.7553270000000001,1.7756049999999999,2.3453209999999998,1.551331,1.714231,1.328933,1.118371,1.4653,0.300031,1.8772970000000002,1.4795530000000001,1.35522,1.927448,"[-0.023139399999999997, -0.005967399999999999]"
-0.928407,-1.018533,1.633438,-1.193376,-1.14889,1.98327,2.090778,-0.57397,-0.44652,2.167944,0.442637,-1.45458,23.64454,43.791482,-46.554966,-49.310066,-4.286365,0.761077,1.671195,0.27264,0.5052909999999999,2.4254279999999997,2.42273,2.0737900000000002,0.940889,2.024181,1.9047290000000001,1.278339,1.290921,1.263471,1.1527889999999998,1.673154,"[0.0245966, 0.089805]"
-0.41996300000000003,0.8384229999999999,1.339402,0.253867,2.0334939999999997,-2.019095,-1.01708,-2.22128,-1.514652,-0.434788,1.4366299999999999,-0.8497399999999999,53.041592,20.036698,6.787435,-73.581071,72.942256,1.23253,0.879175,2.040025,0.456237,1.471034,2.159927,1.899198,0.566832,1.752001,1.636011,0.692241,1.252722,0.49931499999999995,0.9944129999999999,1.607077,"[-0.086661, -0.023139399999999997]"
0.886832,-0.29535,-1.808743,0.076566,0.364141,-1.273781,-0.054876,1.33168,-2.307786,0.720815,-0.819211,1.128318,31.302926,58.272482,35.612878,45.637786,-65.7244,0.9251360000000001,0.512574,1.074154,0.8013170000000001,0.737851,0.565526,2.295525,1.645572,1.6244969999999999,0.6780930000000001,1.9522680000000001,1.523568,0.859085,1.897272,1.950336,"[-0.086661, -0.023139399999999997]"
-1.931559,-0.059823,-1.7039919999999997,-1.8018189999999998,-1.357556,0.950219,0.047047000000000005,-0.9649459999999999,2.19258,-0.183705,-0.9192549999999999,1.997167,1.118275,44.853792,-42.317081,-73.17558299999999,-12.022486,1.196279,1.365082,1.180505,1.742607,1.241172,2.120883,0.42450600000000005,1.425196,1.2733809999999999,1.2056440000000002,1.2511,2.48699,2.085307,1.000276,1.145934,"[0.0245966, 0.089805]"
1.484422,1.295117,0.502174,0.145284,0.77867,0.799058,-0.537038,-1.768268,1.756849,-0.47291700000000003,1.4826549999999998,-0.13162000000000001,-64.670105,-10.449160000000001,30.959660999999997,-10.970444,-30.260014,2.424071,2.103027,1.827047,0.684022,0.351288,1.5965049999999998,0.461379,2.401133,1.350437,0.294481,0.83426,0.901274,2.219608,1.453325,1.532776,"[-0.005967399999999999, 0.006497999999999995]"
2.274168,-0.242497,0.566102,0.159946,2.14471,1.0714569999999999,1.9383029999999999,0.314668,1.32499,-1.651488,-0.591666,-0.996871,-59.312490000000004,34.977931,24.09216,66.936674,4.67816,1.762636,0.366863,2.363716,2.4738290000000003,1.387265,0.507758,1.132706,1.640477,1.494037,1.7822419999999999,1.3917680000000001,1.9367450000000002,1.620377,1.17114,1.855303,"[0.0245966, 0.089805]"
0.825149,-0.273992,-0.9769620000000001,-1.832597,-0.290903,2.261229,-0.947189,-0.959881,-2.20588,-1.857802,0.203751,-1.464621,52.282096,5.184216999999999,-18.862572,-73.25124,66.401865,1.617218,2.078867,0.767307,0.624269,1.83187,0.745512,1.071607,0.753652,0.635049,0.771971,0.260004,1.880686,2.187955,0.466336,2.466882,"[0.0245966, 0.089805]"
1.627899,-0.030323000000000003,-0.708529,-0.041347,-2.198275,-1.2713430000000001,-1.4890450000000002,1.111836,2.011316,2.225841,-1.9501560000000002,-1.599816,24.676925,-4.92247,68.04673199999999,61.429601,-2.688278,0.8966649999999999,1.252904,1.308127,2.4343049999999997,0.8575719999999999,1.214573,0.583613,0.281882,0.5861770000000001,0.625471,1.7971709999999999,0.300766,0.717493,0.41085699999999997,1.524569,"[0.0245966, 0.089805]"
0.236077,-0.083114,-2.0297240000000003,-0.581501,0.207878,1.9233930000000001,-0.526587,-0.486555,-1.538329,2.176429,1.6818330000000001,1.662679,5.9201120000000005,49.322123,56.913413,-6.275437,-21.2731,2.320018,1.5488110000000002,2.109899,0.315678,1.593897,1.625151,0.418076,1.352824,2.157127,2.090585,1.971227,0.663758,1.780578,0.429647,2.326311,"[-0.005967399999999999, 0.006497999999999995]"
-0.7499819999999999,0.693983,0.6146520000000001,0.903531,2.33153,-2.2029970000000003,-0.527239,-2.011531,-1.121805,0.092926,2.007377,1.9974880000000002,22.77638,2.622473,-24.10378,37.762934,31.625846999999997,0.409102,1.270294,1.082922,1.920479,0.48658999999999997,0.862626,0.651208,2.3585849999999997,1.7304580000000003,1.8068419999999998,0.849857,2.0487759999999997,1.284721,0.557667,0.708657,"[0.006497999999999995, 0.0245966]"
0.17693599999999998,0.24784099999999998,-0.295477,0.769275,-1.595745,-1.479374,-1.275829,-1.49481,-1.524175,-0.262748,-0.499197,-1.957717,-46.175613,26.468652000000002,-41.370165,-58.363654000000004,-67.93928000000001,0.542712,1.3535620000000002,1.058974,2.177931,0.7326010000000001,2.32642,1.13182,2.497104,1.0689520000000001,1.127646,2.0949459999999998,1.002281,1.091213,1.763167,0.289018,"[-0.023139399999999997, -0.005967399999999999]"
1.7715599999999998,1.7314990000000001,2.306404,-0.38859699999999997,0.21525100000000003,-1.397052,1.585817,-0.44817299999999993,-2.038586,1.2623,0.307839,-0.356482,-62.212630000000004,42.327878000000005,-45.346175,16.830839,-24.093957999999997,2.167791,1.319587,1.555801,0.352524,2.114087,0.960844,2.15889,2.456839,1.586451,2.488809,1.160423,1.730691,1.218245,1.536198,1.620762,"[-0.023139399999999997, -0.005967399999999999]"
0.288742,-0.869958,1.164002,2.247782,-0.744894,1.3862,-0.19664,-1.5370190000000001,0.634076,2.20142,2.299772,1.254117,-18.473679999999998,12.867479,-36.285578,48.289004,-56.71090600000001,0.771998,0.717952,1.367052,0.549976,1.9408310000000002,0.542629,2.211491,2.28125,2.4759759999999997,1.477623,0.417476,0.275567,2.456501,0.41091099999999997,2.435412,"[-0.086661, -0.023139399999999997]"
-2.2968599999999997,0.564049,-1.3470010000000001,-0.730754,-1.288979,-1.012521,-1.003241,-0.541661,0.646762,-1.3525989999999999,-0.563706,-2.307134,71.725217,-64.278351,-26.241707,-44.365426,0.29267,0.908616,1.8535400000000002,0.453297,1.561611,1.2431290000000002,1.262524,0.9919479999999999,0.677922,1.329324,0.941723,0.290486,1.1989319999999999,0.955799,0.616721,0.9878979999999999,"[0.0245966, 0.089805]"
-1.789537,-2.281364,1.825034,0.40410999999999997,1.332446,1.144291,0.834463,0.742609,-2.087366,1.372846,1.562214,-1.300447,-17.46715,-20.393105,3.089932,32.482308,-69.847658,0.93114,2.4223689999999998,0.496881,0.570681,1.182077,1.171395,1.632574,1.42735,1.468497,2.281541,0.6101,2.1996919999999998,1.9748450000000002,0.726895,0.92868,"[0.006497999999999995, 0.0245966]"
-0.8632860000000001,0.198347,1.9629189999999999,-0.6494300000000001,-1.075805,0.387285,1.2819969999999998,1.486707,1.993222,-0.285903,1.461981,1.124782,-60.12351700000001,54.052776,64.99911,-9.952122,-15.313492000000002,1.767161,2.171439,1.882724,0.44280600000000003,0.733024,0.438036,1.5670389999999998,2.4687419999999998,1.4042649999999999,0.481142,1.559883,1.460114,0.889232,2.3256200000000002,1.187871,"[-0.023139399999999997, -0.005967399999999999]"
-1.169743,0.21614,-0.5910380000000001,0.133332,-2.187916,-1.527047,-1.411268,-1.721498,0.8467319999999999,-0.38622,-2.242511,-0.202104,27.44257,-22.723518,-14.175382,-45.647544,51.73105,2.031326,0.49531099999999995,1.196869,2.2778669999999996,1.864513,0.37643499999999996,1.244464,1.210582,1.002399,0.821558,1.177389,1.1317190000000001,0.8067840000000001,0.366313,2.129171,"[-0.023139399999999997, -0.005967399999999999]"
-0.191975,1.467531,0.148384,1.029539,-0.431068,-2.0177959999999997,1.9633150000000001,1.2798040000000002,2.31477,-1.152551,1.714157,-1.7063380000000001,37.518965,-18.757317999999998,45.757482,-3.999227,-15.00656,0.396188,2.481682,0.623672,0.806403,0.713314,2.171251,0.9704229999999999,1.145857,2.1744529999999997,0.777019,1.8522,0.42205200000000004,0.68601,2.270523,2.172206,"[0.006497999999999995, 0.0245966]"
-1.6306100000000001,1.598524,1.072184,0.014797999999999999,-1.0443360000000002,1.4971079999999999,-2.259677,-1.241139,1.9198169999999999,0.635758,2.2013830000000003,1.672207,2.869311,74.50195,-45.729243,28.617651000000002,-73.13818,1.62416,1.757448,0.925758,1.964838,1.2894370000000002,1.06561,1.203388,1.583668,0.699091,1.624374,0.852305,0.43471899999999997,2.073962,1.584595,0.5428930000000001,"[-0.086661, -0.023139399999999997]"
-1.097208,-1.190708,1.287038,1.3760629999999998,-0.920314,-1.6532490000000002,-1.9070599999999998,1.712205,-1.524176,-0.287016,1.6125909999999999,1.86732,-14.943634,-57.657681000000004,-52.641856000000004,-51.667275,-21.886835,0.594383,1.290729,0.284148,0.431992,1.238406,0.64241,0.731869,1.275967,1.932289,0.9804809999999999,1.448075,1.042349,1.7532279999999998,1.9961659999999999,1.3090979999999999,"[0.006497999999999995, 0.0245966]"
0.903157,0.758972,-0.400758,-1.5364719999999998,0.40931100000000004,-0.794114,-1.192899,2.162234,-1.273527,-0.5054930000000001,0.620622,2.277398,70.343407,-38.358408000000004,10.231891000000001,67.396925,-59.87386,2.1255900000000003,0.794145,1.699904,1.2826030000000002,0.9638559999999999,1.029676,0.259602,1.875993,2.066449,1.314318,0.735498,1.522699,2.009594,1.999016,1.96449,"[-0.086661, -0.023139399999999997]"
-0.9021040000000001,-1.912262,-0.897117,1.8046360000000001,1.586856,-1.838275,-1.471004,-1.9650619999999999,2.339362,2.2021479999999998,0.391204,1.180672,-9.971649000000001,-43.496243,58.650735,-57.099375,30.798828999999998,1.163885,1.4138389999999998,1.644943,2.313601,1.6854259999999999,0.947202,2.379538,0.648497,1.7854599999999998,1.4805,1.514581,0.5620390000000001,2.188063,2.266151,0.698946,"[-0.023139399999999997, -0.005967399999999999]"
-0.370985,-0.659809,-1.1543889999999999,-0.908701,0.314129,1.6862139999999999,-0.11766099999999999,1.674333,-1.8791259999999999,-0.04498,-2.001692,-0.6970069999999999,12.6517,-62.870913,-71.442113,22.408763,-25.92587,1.5834190000000001,1.015325,2.074353,1.398403,0.9577459999999999,1.843557,1.415482,2.26127,1.907056,2.143259,0.748286,0.43903500000000006,0.366833,1.8678720000000002,0.581492,"[-0.086661, -0.023139399999999997]"
1.074084,-1.037421,-0.087377,1.721384,1.9509849999999997,1.402817,1.062992,1.0428,0.9703719999999999,-0.540361,-1.068526,0.200469,-2.667401,18.991021,-17.907019000000002,-63.267988,4.917338,1.310471,1.336802,0.6380779999999999,2.1688009999999998,0.282092,1.875547,1.3143989999999999,2.103462,2.381151,0.758255,1.496925,0.81715,1.341888,0.6125189999999999,2.358845,"[-0.023139399999999997, -0.005967399999999999]"
1.9710860000000001,-0.056639,-0.034905,-2.305741,2.095839,-0.350215,-0.282277,1.1467530000000001,-0.189702,1.9628290000000002,-2.177332,1.999089,-20.265535,47.157444,-24.843382000000002,57.270557,-3.754661,2.056191,2.156167,1.6942380000000001,0.556643,1.4916969999999998,0.702911,0.575159,2.1977729999999998,1.2273180000000001,1.0351860000000002,0.6217739999999999,0.40997,2.37255,2.446902,1.0739049999999999,"[0.0245966, 0.089805]"
1.4587860000000001,-0.737819,-2.2273680000000002,-0.158368,0.810747,-2.00822,-2.021884,-0.7693989999999999,-0.49341,1.057393,1.185912,-1.7820580000000001,28.57643,-15.946779000000001,32.490433,66.703311,-17.45514,1.846957,2.313519,0.315877,0.452348,1.3707989999999999,0.523936,0.797435,0.734046,1.856623,0.506937,0.8410610000000001,0.454251,1.8451529999999998,1.2378040000000001,1.7672729999999999,"[-0.086661, -0.023139399999999997]"
0.098781,1.455066,-2.007437,1.7174209999999999,1.305988,-0.5609029999999999,-2.312728,-2.235821,-0.852907,0.285562,2.221437,-0.569162,8.025207,29.649187,13.87844,4.940134,-71.167502,1.191934,0.332442,2.1110990000000003,2.489649,1.780976,0.358232,1.3085959999999999,1.331755,1.304792,0.383206,0.290697,2.494536,0.664575,2.012652,1.633114,"[0.006497999999999995, 0.0245966]"
1.348929,0.14257,2.285759,1.360091,-0.742746,-0.21964499999999998,-1.765207,1.36079,1.575169,-0.341904,-1.9699119999999999,0.930802,-36.177448,65.636514,52.882689,49.357452,50.693005,1.334905,2.492156,1.160877,0.36099000000000003,0.40595,2.306058,0.9202549999999999,1.729312,0.5499470000000001,1.464833,1.447238,0.48469700000000004,0.5448890000000001,1.955788,2.1846509999999997,"[-0.086661, -0.023139399999999997]"
-0.578817,-1.8038900000000002,1.5362799999999999,1.0776219999999999,1.883619,0.160613,-0.776497,-1.985161,-0.882775,-2.1943509999999997,-1.300418,-0.072688,-36.927702000000004,56.114766,70.867738,74.07741899999999,19.185910999999997,0.739157,2.264852,1.376195,1.217854,1.722231,0.7922680000000001,1.6538970000000002,2.046303,2.4678080000000002,1.442815,0.391254,0.553268,1.0176399999999999,0.477785,1.375887,"[0.006497999999999995, 0.0245966]"
1.6170200000000001,0.901826,1.9419939999999998,1.093401,-1.526337,1.0930799999999998,-2.204165,-1.314068,1.428854,0.410285,1.441661,-1.111817,-53.82286,49.194796000000004,16.931265,13.775664,-72.413129,2.163011,1.982457,0.401041,0.801465,0.980065,1.195707,0.743115,1.276281,0.45804399999999995,0.35346900000000003,2.245766,2.346278,1.8979669999999997,2.38367,0.334888,"[0.006497999999999995, 0.0245966]"
-0.334584,-1.4771239999999999,-1.156828,0.514626,2.079119,1.382233,-0.883496,-0.18034,-0.913429,0.959023,1.9334959999999999,-0.364167,26.903174,61.651346999999994,-25.806064000000003,-72.518365,-66.15414,0.5855600000000001,1.4989270000000001,0.7099880000000001,0.267965,0.691983,1.415738,2.0511310000000003,0.366218,0.521809,1.051109,0.495303,1.051416,1.148075,1.1896,1.613733,"[-0.086661, -0.023139399999999997]"
-0.134157,-2.2466310000000003,1.247814,1.8749369999999999,0.31496799999999997,1.6551779999999998,1.343808,-1.0945610000000001,0.878365,-1.235184,-1.663963,1.803954,-14.471545,-73.264177,-1.0240639999999999,38.547888,24.347501,1.501632,1.1766290000000001,1.847662,0.6571319999999999,0.674523,0.464005,1.530838,1.553243,2.358268,0.9135850000000001,2.1172009999999997,1.540704,0.861716,1.114108,1.8133380000000001,"[-0.086661, -0.023139399999999997]"
-0.24890199999999998,1.311977,1.123981,-1.217769,-1.145139,-0.9629,-1.1173819999999999,-0.9749120000000001,-0.375366,1.1098729999999999,2.001697,0.776633,-14.13901,-34.345494,-44.712664000000004,14.261073000000001,-14.141637,2.447566,0.9897530000000001,2.027763,1.356012,1.74947,1.8513240000000002,1.456428,1.9314,1.796202,2.0078549999999997,2.027635,1.4568290000000002,1.9205439999999998,1.585007,0.711001,"[-0.005967399999999999, 0.006497999999999995]"
0.83121,-2.083801,0.038598,-1.585797,0.783826,-2.082823,2.338141,0.516125,-0.988303,0.764847,-0.608528,-1.648883,24.657589,-29.899148999999998,-14.991673,34.9545,-69.711175,1.589227,1.8831790000000002,1.3424399999999999,0.8848360000000001,0.430845,2.2116830000000003,1.006399,0.554247,1.735834,2.153715,0.9945139999999999,1.0501969999999998,0.9091959999999999,0.349425,1.778205,"[-0.086661, -0.023139399999999997]"
0.42141300000000004,-0.024383000000000002,0.18090699999999998,1.020556,-0.615568,-2.163807,-1.590317,0.216402,-0.8969719999999999,-0.470552,-1.18566,1.302563,-50.323315,66.052624,-3.549265,47.50253,-74.984873,1.8136,1.9243709999999998,0.650077,1.337021,2.055185,1.001737,0.950649,1.8140610000000001,0.665626,1.681889,2.262435,1.252262,1.7622509999999998,0.6510859999999999,0.308313,"[-0.086661, -0.023139399999999997]"
-1.1055030000000001,0.760663,-0.256038,-0.817149,-1.928568,-1.634779,2.2036119999999997,1.443569,-2.0246630000000003,-0.350812,-0.904445,1.1557309999999998,-2.95607,-32.671938,32.731349,65.77758100000001,23.808862,0.708263,0.530541,1.559192,1.089312,1.312761,1.580782,1.7031,0.9959049999999999,1.9239950000000001,1.0840319999999999,0.329696,0.9424620000000001,1.463622,1.3519459999999999,0.902551,"[0.006497999999999995, 0.0245966]"
-2.173753,0.888599,1.115085,0.06677000000000001,0.6559020000000001,1.4738280000000001,2.305668,1.395645,-1.661687,-2.349997,-1.872307,1.477941,23.785598999999998,14.560346,65.72892399999999,-43.967288,-58.201527,0.728911,1.056885,0.80848,1.874728,1.057409,0.6165619999999999,0.5526340000000001,1.616601,0.715758,0.497622,1.776905,1.693974,0.6285470000000001,1.7463520000000001,1.195357,"[0.0245966, 0.089805]"
0.481675,-0.378486,0.506091,0.00339,0.432151,1.37018,-0.836132,-0.5188520000000001,2.2824419999999996,2.156203,1.038378,2.038911,-16.472439,47.716582,72.594373,-6.379303,33.059932,1.9491779999999999,1.342524,2.308867,0.8760110000000001,0.616872,1.2738530000000001,2.401396,1.2666629999999999,0.812769,1.966343,1.8191279999999999,0.33569099999999996,0.45293,2.145351,2.1717619999999997,"[0.006497999999999995, 0.0245966]"
2.202956,-0.149599,2.0987669999999996,1.739727,-0.7866890000000001,1.082343,1.1174600000000001,2.287208,2.154659,-1.352211,1.245111,-1.135521,15.004199,25.575615,-50.633995,-55.554202000000004,50.535142,2.037007,1.475287,1.642365,1.71987,1.6123,0.431304,0.927687,0.6315390000000001,0.26909,1.598259,0.6907369999999999,0.723136,0.754995,0.695543,0.48717,"[0.0245966, 0.089805]"
0.312287,-0.987282,-0.9311459999999999,0.079622,-0.119288,-2.1144849999999997,-2.016132,1.650896,0.06288099999999999,1.258808,-1.844234,2.04805,72.942578,-4.093119000000001,56.941475,15.370532,32.530223,1.1568459999999998,2.3581380000000003,0.9843770000000001,1.676434,0.583469,2.36972,2.140262,2.13692,2.219336,1.376906,1.9161549999999998,2.063216,0.969616,1.082763,1.50337,"[-0.023139399999999997, -0.005967399999999999]"
0.945449,-0.008943000000000001,0.48811499999999997,-0.521063,-1.894571,-0.44239799999999996,0.75841,-0.41051899999999997,-0.655833,-0.31204299999999996,0.389179,0.127655,43.563986,29.914595000000002,-25.403354,-54.176007999999996,-36.168689,2.317775,2.101125,1.3571309999999999,0.30208,0.309667,1.819236,2.155192,1.0683,1.415274,1.009707,2.144299,2.477378,0.292025,2.313605,1.767855,"[-0.023139399999999997, -0.005967399999999999]"
2.008625,-0.598258,1.318514,-2.1042419999999997,0.475501,-0.46206899999999995,0.023183000000000002,-1.4970510000000001,-1.4930350000000001,0.038468,0.9363090000000001,1.8857599999999999,-49.629481,27.320124,19.324467000000002,36.317695,41.495684000000004,2.394387,0.464079,0.52603,2.228412,0.92624,1.0668739999999999,2.200207,1.635167,2.254245,0.848291,0.480099,2.031344,0.801379,1.7780340000000001,0.424104,"[-0.086661, -0.023139399999999997]"
2.05989,-1.3551600000000001,-1.198592,0.733298,1.6373,-2.256998,1.367833,2.1387009999999997,-0.960808,1.0581040000000002,-0.9952799999999999,1.314381,-28.102789,26.423222999999997,-54.886097,29.369131,-43.015863,1.8608740000000001,2.2015849999999997,2.281523,0.309421,2.1822939999999997,2.0628729999999997,1.9621389999999999,0.927378,2.192491,2.4532580000000004,2.151932,0.271619,1.3566200000000002,0.716316,0.877056,"[0.006497999999999995, 0.0245966]"
1.264586,1.018373,0.40221,-2.3389729999999997,-0.373562,-1.5557370000000001,1.7707560000000002,-2.3468880000000003,-1.458018,-0.487604,-0.322673,0.790126,4.288451,-74.009275,-73.878556,23.114387,-16.495875,0.682501,1.7988110000000002,0.8597030000000001,1.027233,1.9537639999999998,1.908898,1.5988950000000002,2.378844,2.4810119999999998,0.6189680000000001,0.488817,2.296436,1.193026,0.694238,1.052178,"[-0.086661, -0.023139399999999997]"
1.433035,0.0015890000000000001,-1.574686,-0.965131,-0.914377,-0.8334799999999999,1.629404,1.699986,0.45745,-2.260573,-2.175793,-0.41553999999999996,-7.09002,-61.95962900000001,-55.48830699999999,-41.981171,22.459232999999998,2.45998,0.39171,1.474385,2.24068,2.3572029999999997,1.015144,1.272216,1.877361,0.29969,0.6417970000000001,1.682277,2.034086,1.8888189999999998,1.6323940000000001,0.636817,"[0.0245966, 0.089805]"
1.138306,-0.7892359999999999,0.689986,-0.589864,1.014281,2.309414,-1.6228850000000001,-0.5209739999999999,-0.38363400000000003,-1.1958879999999998,-0.9435180000000001,-0.511342,40.351524,38.059199,60.963499,-36.478501,-44.162867,0.695481,1.698449,1.574704,0.806144,0.8557799999999999,0.33771999999999996,0.811552,1.7600049999999998,1.163075,1.307092,0.7889619999999999,2.3404529999999997,0.750354,1.448692,2.41951,"[0.006497999999999995, 0.0245966]"
-0.04347,-0.177373,1.834725,-1.64285,-1.485262,-1.276989,-2.1437779999999997,0.447132,-1.309775,-1.8167650000000002,1.9159599999999999,1.785534,30.803379,62.385376,11.010542999999998,-45.808589000000005,45.0372,1.978314,0.5237649999999999,2.4152099999999996,1.681269,0.8290129999999999,0.464203,0.367772,1.885743,1.677295,1.549658,0.6006,2.278458,0.548254,2.252871,0.26154299999999997,"[-0.005967399999999999, 0.006497999999999995]"
1.526333,-1.1687969999999999,1.9823099999999998,0.09956,0.41500600000000004,0.668199,0.805161,-1.633607,-1.651432,0.360561,-0.176198,-1.9867569999999999,18.141351,-48.312428000000004,-36.978555,-48.579933000000004,-32.938902,2.063143,1.994447,1.664141,0.9627129999999999,2.069868,0.27168000000000003,2.3738759999999997,2.234943,0.44562399999999996,0.850575,0.60629,1.16977,1.329483,1.370789,0.35247399999999995,"[0.0245966, 0.089805]"
-0.30355,1.7451759999999998,1.266537,0.821459,-1.030744,-0.969459,1.7410729999999999,-1.715639,0.36017899999999997,-1.8847369999999999,-0.08944500000000001,-0.047343,22.289911,-73.468489,15.112987,53.965348999999996,-54.375108,2.388287,1.4425370000000002,2.474288,2.3602060000000002,1.9911459999999999,2.441667,0.846244,2.079215,2.118183,2.301618,0.536664,0.9543860000000001,1.616788,1.606963,0.734462,"[-0.086661, -0.023139399999999997]"
0.21856,-2.3179689999999997,-0.779055,2.1545240000000003,1.086582,1.6691049999999998,-0.199157,-1.435651,-1.5615940000000001,2.287773,2.2156849999999997,1.7138970000000002,-43.695797,4.7423660000000005,54.938646,-46.171969,-62.283747999999996,2.080784,1.491502,1.9189470000000002,1.7404099999999998,0.315567,1.985338,1.57045,1.299793,1.8713950000000001,1.29019,2.476771,1.348036,0.443984,0.29589899999999997,2.168876,"[0.006497999999999995, 0.0245966]"
-1.017467,0.686164,1.1376870000000001,-1.769813,-0.640415,-0.363539,1.9741,-1.233172,-0.8268469999999999,0.017412,0.473884,0.631745,23.141397,-12.546109,37.543971,-48.484811,65.788765,2.301704,1.9852779999999999,0.5597449999999999,1.878294,2.494482,2.003503,0.882965,0.489755,2.305202,2.277498,2.40173,2.3786869999999998,2.088362,0.602308,1.7346259999999998,"[0.0245966, 0.089805]"
-0.341744,0.706276,-0.12231700000000001,-1.188411,2.201155,-2.160161,-1.581067,0.171718,2.085844,1.327058,0.119895,-1.835109,-3.072361,-37.16796,68.092111,74.114373,40.265836,0.593536,0.555082,2.261894,1.159772,2.034009,0.583387,0.977985,2.235779,0.987093,2.3216509999999997,1.9937630000000002,1.420407,1.783771,2.333042,2.1804509999999997,"[0.0245966, 0.089805]"
1.645116,1.882309,1.700163,-1.2813430000000001,0.082637,-1.278966,2.337374,1.775553,-1.841357,-1.430919,-2.141062,-1.031817,-5.049816000000001,27.747616999999998,4.200283,-55.843856,-17.686458,2.030454,1.581564,1.340488,1.8334240000000002,2.112562,2.3327169999999997,1.227827,0.591648,0.326907,1.319153,1.005343,0.7920149999999999,1.891629,1.606498,1.914722,"[0.0245966, 0.089805]"
